project/assets/noai_beautify/luts/haute_16.cube
# Haute
LUT_3D_SIZE 16
0.019974 0.000000 0.020714
0.089132 0.000000 0.020714
0.159505 0.000000 0.020714
0.230513 0.000000 0.020714
0.301959 0.000000 0.020714
0.373742 0.000000 0.020714
0.445798 0.000000 0.020714
0.518084 0.000000 0.020714
0.590569 0.000000 0.020714
0.663229 0.000000 0.020714
0.736045 0.000000 0.020714
0.809004 0.000000 0.020714
0.882092 0.000000 0.020714
0.955299 0.000000 0.020714
1.000000 0.000000 0.020714
1.000000 0.000000 0.020714
0.019974 0.068000 0.020714
0.089132 0.068000 0.020714
0.159505 0.068000 0.020714
0.230513 0.068000 0.020714
0.301959 0.068000 0.020714
0.373742 0.068000 0.020714
0.445798 0.068000 0.020714
0.518084 0.068000 0.020714
0.590569 0.068000 0.020714
0.663229 0.068000 0.020714
0.736045 0.068000 0.020714
0.809004 0.068000 0.020714
0.882092 0.068000 0.020714
0.955299 0.068000 0.020714
1.000000 0.068000 0.020714
1.000000 0.068000 0.020714
0.019974 0.136000 0.020714
0.089132 0.136000 0.020714
0.159505 0.136000 0.020714
0.230513 0.136000 0.020714
0.301959 0.136000 0.020714
0.373742 0.136000 0.020714
0.445798 0.136000 0.020714
0.518084 0.136000 0.020714
0.590569 0.136000 0.020714
0.663229 0.136000 0.020714
0.736045 0.136000 0.020714
0.809004 0.136000 0.020714
0.882092 0.136000 0.020714
0.955299 0.136000 0.020714
1.000000 0.136000 0.020714
1.000000 0.136000 0.020714
0.019974 0.204000 0.020714
0.089132 0.204000 0.020714
0.159505 0.204000 0.020714
0.230513 0.204000 0.020714
0.301959 0.204000 0.020714
0.373742 0.204000 0.020714
0.445798 0.204000 0.020714
0.518084 0.204000 0.020714
0.590569 0.204000 0.020714
0.663229 0.204000 0.020714
0.736045 0.204000 0.020714
0.809004 0.204000 0.020714
0.882092 0.204000 0.020714
0.955299 0.204000 0.020714
1.000000 0.204000 0.020714
1.000000 0.204000 0.020714
0.019974 0.272000 0.020714
0.089132 0.272000 0.020714
0.159505 0.272000 0.020714
0.230513 0.272000 0.020714
0.301959 0.272000 0.020714
0.373742 0.272000 0.020714
0.445798 0.272000 0.020714
0.518084 0.272000 0.020714
0.590569 0.272000 0.020714
0.663229 0.272000 0.020714
0.736045 0.272000 0.020714
0.809004 0.272000 0.020714
0.882092 0.272000 0.020714
0.955299 0.272000 0.020714
1.000000 0.272000 0.020714
1.000000 0.272000 0.020714
0.019974 0.340000 0.020714
0.089132 0.340000 0.020714
0.159505 0.340000 0.020714
0.230513 0.340000 0.020714
0.301959 0.340000 0.020714
0.373742 0.340000 0.020714
0.445798 0.340000 0.020714
0.518084 0.340000 0.020714
0.590569 0.340000 0.020714
0.663229 0.340000 0.020714
0.736045 0.340000 0.020714
0.809004 0.340000 0.020714
0.882092 0.340000 0.020714
0.955299 0.340000 0.020714
1.000000 0.340000 0.020714
1.000000 0.340000 0.020714
0.019974 0.408000 0.020714
0.089132 0.408000 0.020714
0.159505 0.408000 0.020714
0.230513 0.408000 0.020714
0.301959 0.408000 0.020714
0.373742 0.408000 0.020714
0.445798 0.408000 0.020714
0.518084 0.408000 0.020714
0.590569 0.408000 0.020714
0.663229 0.408000 0.020714
0.736045 0.408000 0.020714
0.809004 0.408000 0.020714
0.882092 0.408000 0.020714
0.955299 0.408000 0.020714
1.000000 0.408000 0.020714
1.000000 0.408000 0.020714
0.019974 0.476000 0.020714
0.089132 0.476000 0.020714
0.159505 0.476000 0.020714
0.230513 0.476000 0.020714
0.301959 0.476000 0.020714
0.373742 0.476000 0.020714
0.445798 0.476000 0.020714
0.518084 0.476000 0.020714
0.590569 0.476000 0.020714
0.663229 0.476000 0.020714
0.736045 0.476000 0.020714
0.809004 0.476000 0.020714
0.882092 0.476000 0.020714
0.955299 0.476000 0.020714
1.000000 0.476000 0.020714
1.000000 0.476000 0.020714
0.019974 0.544000 0.020714
0.089132 0.544000 0.020714
0.159505 0.544000 0.020714
0.230513 0.544000 0.020714
0.301959 0.544000 0.020714
0.373742 0.544000 0.020714
0.445798 0.544000 0.020714
0.518084 0.544000 0.020714
0.590569 0.544000 0.020714
0.663229 0.544000 0.020714
0.736045 0.544000 0.020714
0.809004 0.544000 0.020714
0.882092 0.544000 0.020714
0.955299 0.544000 0.020714
1.000000 0.544000 0.020714
1.000000 0.544000 0.020714
0.019974 0.612000 0.020714
0.089132 0.612000 0.020714
0.159505 0.612000 0.020714
0.230513 0.612000 0.020714
0.301959 0.612000 0.020714
0.373742 0.612000 0.020714
0.445798 0.612000 0.020714
0.518084 0.612000 0.020714
0.590569 0.612000 0.020714
0.663229 0.612000 0.020714
0.736045 0.612000 0.020714
0.809004 0.612000 0.020714
0.882092 0.612000 0.020714
0.955299 0.612000 0.020714
1.000000 0.612000 0.020714
1.000000 0.612000 0.020714
0.019974 0.680000 0.020714
0.089132 0.680000 0.020714
0.159505 0.680000 0.020714
0.230513 0.680000 0.020714
0.301959 0.680000 0.020714
0.373742 0.680000 0.020714
0.445798 0.680000 0.020714
0.518084 0.680000 0.020714
0.590569 0.680000 0.020714
0.663229 0.680000 0.020714
0.736045 0.680000 0.020714
0.809004 0.680000 0.020714
0.882092 0.680000 0.020714
0.955299 0.680000 0.020714
1.000000 0.680000 0.020714
1.000000 0.680000 0.020714
0.019974 0.748000 0.020714
0.089132 0.748000 0.020714
0.159505 0.748000 0.020714
0.230513 0.748000 0.020714
0.301959 0.748000 0.020714
0.373742 0.748000 0.020714
0.445798 0.748000 0.020714
0.518084 0.748000 0.020714
0.590569 0.748000 0.020714
0.663229 0.748000 0.020714
0.736045 0.748000 0.020714
0.809004 0.748000 0.020714
0.882092 0.748000 0.020714
0.955299 0.748000 0.020714
1.000000 0.748000 0.020714
1.000000 0.748000 0.020714
0.019974 0.816000 0.020714
0.089132 0.816000 0.020714
0.159505 0.816000 0.020714
0.230513 0.816000 0.020714
0.301959 0.816000 0.020714
0.373742 0.816000 0.020714
0.445798 0.816000 0.020714
0.518084 0.816000 0.020714
0.590569 0.816000 0.020714
0.663229 0.816000 0.020714
0.736045 0.816000 0.020714
0.809004 0.816000 0.020714
0.882092 0.816000 0.020714
0.955299 0.816000 0.020714
1.000000 0.816000 0.020714
1.000000 0.816000 0.020714
0.019974 0.884000 0.020714
0.089132 0.884000 0.020714
0.159505 0.884000 0.020714
0.230513 0.884000 0.020714
0.301959 0.884000 0.020714
0.373742 0.884000 0.020714
0.445798 0.884000 0.020714
0.518084 0.884000 0.020714
0.590569 0.884000 0.020714
0.663229 0.884000 0.020714
0.736045 0.884000 0.020714
0.809004 0.884000 0.020714
0.882092 0.884000 0.020714
0.955299 0.884000 0.020714
1.000000 0.884000 0.020714
1.000000 0.884000 0.020714
0.019974 0.952000 0.020714
0.089132 0.952000 0.020714
0.159505 0.952000 0.020714
0.230513 0.952000 0.020714
0.301959 0.952000 0.020714
0.373742 0.952000 0.020714
0.445798 0.952000 0.020714
0.518084 0.952000 0.020714
0.590569 0.952000 0.020714
0.663229 0.952000 0.020714
0.736045 0.952000 0.020714
0.809004 0.952000 0.020714
0.882092 0.952000 0.020714
0.955299 0.952000 0.020714
1.000000 0.952000 0.020714
1.000000 0.952000 0.020714
0.019974 1.000000 0.020714
0.089132 1.000000 0.020714
0.159505 1.000000 0.020714
0.230513 1.000000 0.020714
0.301959 1.000000 0.020714
0.373742 1.000000 0.020714
0.445798 1.000000 0.020714
0.518084 1.000000 0.020714
0.590569 1.000000 0.020714
0.663229 1.000000 0.020714
0.736045 1.000000 0.020714
0.809004 1.000000 0.020714
0.882092 1.000000 0.020714
0.955299 1.000000 0.020714
1.000000 1.000000 0.020714
1.000000 1.000000 0.020714
0.019974 0.000000 0.092433
0.089132 0.000000 0.092433
0.159505 0.000000 0.092433
0.230513 0.000000 0.092433
0.301959 0.000000 0.092433
0.373742 0.000000 0.092433
0.445798 0.000000 0.092433
0.518084 0.000000 0.092433
0.590569 0.000000 0.092433
0.663229 0.000000 0.092433
0.736045 0.000000 0.092433
0.809004 0.000000 0.092433
0.882092 0.000000 0.092433
0.955299 0.000000 0.092433
1.000000 0.000000 0.092433
1.000000 0.000000 0.092433
0.019974 0.068000 0.092433
0.089132 0.068000 0.092433
0.159505 0.068000 0.092433
0.230513 0.068000 0.092433
0.301959 0.068000 0.092433
0.373742 0.068000 0.092433
0.445798 0.068000 0.092433
0.518084 0.068000 0.092433
0.590569 0.068000 0.092433
0.663229 0.068000 0.092433
0.736045 0.068000 0.092433
0.809004 0.068000 0.092433
0.882092 0.068000 0.092433
0.955299 0.068000 0.092433
1.000000 0.068000 0.092433
1.000000 0.068000 0.092433
0.019974 0.136000 0.092433
0.089132 0.136000 0.092433
0.159505 0.136000 0.092433
0.230513 0.136000 0.092433
0.301959 0.136000 0.092433
0.373742 0.136000 0.092433
0.445798 0.136000 0.092433
0.518084 0.136000 0.092433
0.590569 0.136000 0.092433
0.663229 0.136000 0.092433
0.736045 0.136000 0.092433
0.809004 0.136000 0.092433
0.882092 0.136000 0.092433
0.955299 0.136000 0.092433
1.000000 0.136000 0.092433
1.000000 0.136000 0.092433
0.019974 0.204000 0.092433
0.089132 0.204000 0.092433
0.159505 0.204000 0.092433
0.230513 0.204000 0.092433
0.301959 0.204000 0.092433
0.373742 0.204000 0.092433
0.445798 0.204000 0.092433
0.518084 0.204000 0.092433
0.590569 0.204000 0.092433
0.663229 0.204000 0.092433
0.736045 0.204000 0.092433
0.809004 0.204000 0.092433
0.882092 0.204000 0.092433
0.955299 0.204000 0.092433
1.000000 0.204000 0.092433
1.000000 0.204000 0.092433
0.019974 0.272000 0.092433
0.089132 0.272000 0.092433
0.159505 0.272000 0.092433
0.230513 0.272000 0.092433
0.301959 0.272000 0.092433
0.373742 0.272000 0.092433
0.445798 0.272000 0.092433
0.518084 0.272000 0.092433
0.590569 0.272000 0.092433
0.663229 0.272000 0.092433
0.736045 0.272000 0.092433
0.809004 0.272000 0.092433
0.882092 0.272000 0.092433
0.955299 0.272000 0.092433
1.000000 0.272000 0.092433
1.000000 0.272000 0.092433
0.019974 0.340000 0.092433
0.089132 0.340000 0.092433
0.159505 0.340000 0.092433
0.230513 0.340000 0.092433
0.301959 0.340000 0.092433
0.373742 0.340000 0.092433
0.445798 0.340000 0.092433
0.518084 0.340000 0.092433
0.590569 0.340000 0.092433
0.663229 0.340000 0.092433
0.736045 0.340000 0.092433
0.809004 0.340000 0.092433
0.882092 0.340000 0.092433
0.955299 0.340000 0.092433
1.000000 0.340000 0.092433
1.000000 0.340000 0.092433
0.019974 0.408000 0.092433
0.089132 0.408000 0.092433
0.159505 0.408000 0.092433
0.230513 0.408000 0.092433
0.301959 0.408000 0.092433
0.373742 0.408000 0.092433
0.445798 0.408000 0.092433
0.518084 0.408000 0.092433
0.590569 0.408000 0.092433
0.663229 0.408000 0.092433
0.736045 0.408000 0.092433
0.809004 0.408000 0.092433
0.882092 0.408000 0.092433
0.955299 0.408000 0.092433
1.000000 0.408000 0.092433
1.000000 0.408000 0.092433
0.019974 0.476000 0.092433
0.089132 0.476000 0.092433
0.159505 0.476000 0.092433
0.230513 0.476000 0.092433
0.301959 0.476000 0.092433
0.373742 0.476000 0.092433
0.445798 0.476000 0.092433
0.518084 0.476000 0.092433
0.590569 0.476000 0.092433
0.663229 0.476000 0.092433
0.736045 0.476000 0.092433
0.809004 0.476000 0.092433
0.882092 0.476000 0.092433
0.955299 0.476000 0.092433
1.000000 0.476000 0.092433
1.000000 0.476000 0.092433
0.019974 0.544000 0.092433
0.089132 0.544000 0.092433
0.159505 0.544000 0.092433
0.230513 0.544000 0.092433
0.301959 0.544000 0.092433
0.373742 0.544000 0.092433
0.445798 0.544000 0.092433
0.518084 0.544000 0.092433
0.590569 0.544000 0.092433
0.663229 0.544000 0.092433
0.736045 0.544000 0.092433
0.809004 0.544000 0.092433
0.882092 0.544000 0.092433
0.955299 0.544000 0.092433
1.000000 0.544000 0.092433
1.000000 0.544000 0.092433
0.019974 0.612000 0.092433
0.089132 0.612000 0.092433
0.159505 0.612000 0.092433
0.230513 0.612000 0.092433
0.301959 0.612000 0.092433
0.373742 0.612000 0.092433
0.445798 0.612000 0.092433
0.518084 0.612000 0.092433
0.590569 0.612000 0.092433
0.663229 0.612000 0.092433
0.736045 0.612000 0.092433
0.809004 0.612000 0.092433
0.882092 0.612000 0.092433
0.955299 0.612000 0.092433
1.000000 0.612000 0.092433
1.000000 0.612000 0.092433
0.019974 0.680000 0.092433
0.089132 0.680000 0.092433
0.159505 0.680000 0.092433
0.230513 0.680000 0.092433
0.301959 0.680000 0.092433
0.373742 0.680000 0.092433
0.445798 0.680000 0.092433
0.518084 0.680000 0.092433
0.590569 0.680000 0.092433
0.663229 0.680000 0.092433
0.736045 0.680000 0.092433
0.809004 0.680000 0.092433
0.882092 0.680000 0.092433
0.955299 0.680000 0.092433
1.000000 0.680000 0.092433
1.000000 0.680000 0.092433
0.019974 0.748000 0.092433
0.089132 0.748000 0.092433
0.159505 0.748000 0.092433
0.230513 0.748000 0.092433
0.301959 0.748000 0.092433
0.373742 0.748000 0.092433
0.445798 0.748000 0.092433
0.518084 0.748000 0.092433
0.590569 0.748000 0.092433
0.663229 0.748000 0.092433
0.736045 0.748000 0.092433
0.809004 0.748000 0.092433
0.882092 0.748000 0.092433
0.955299 0.748000 0.092433
1.000000 0.748000 0.092433
1.000000 0.748000 0.092433
0.019974 0.816000 0.092433
0.089132 0.816000 0.092433
0.159505 0.816000 0.092433
0.230513 0.816000 0.092433
0.301959 0.816000 0.092433
0.373742 0.816000 0.092433
0.445798 0.816000 0.092433
0.518084 0.816000 0.092433
0.590569 0.816000 0.092433
0.663229 0.816000 0.092433
0.736045 0.816000 0.092433
0.809004 0.816000 0.092433
0.882092 0.816000 0.092433
0.955299 0.816000 0.092433
1.000000 0.816000 0.092433
1.000000 0.816000 0.092433
0.019974 0.884000 0.092433
0.089132 0.884000 0.092433
0.159505 0.884000 0.092433
0.230513 0.884000 0.092433
0.301959 0.884000 0.092433
0.373742 0.884000 0.092433
0.445798 0.884000 0.092433
0.518084 0.884000 0.092433
0.590569 0.884000 0.092433
0.663229 0.884000 0.092433
0.736045 0.884000 0.092433
0.809004 0.884000 0.092433
0.882092 0.884000 0.092433
0.955299 0.884000 0.092433
1.000000 0.884000 0.092433
1.000000 0.884000 0.092433
0.019974 0.952000 0.092433
0.089132 0.952000 0.092433
0.159505 0.952000 0.092433
0.230513 0.952000 0.092433
0.301959 0.952000 0.092433
0.373742 0.952000 0.092433
0.445798 0.952000 0.092433
0.518084 0.952000 0.092433
0.590569 0.952000 0.092433
0.663229 0.952000 0.092433
0.736045 0.952000 0.092433
0.809004 0.952000 0.092433
0.882092 0.952000 0.092433
0.955299 0.952000 0.092433
1.000000 0.952000 0.092433
1.000000 0.952000 0.092433
0.019974 1.000000 0.092433
0.089132 1.000000 0.092433
0.159505 1.000000 0.092433
0.230513 1.000000 0.092433
0.301959 1.000000 0.092433
0.373742 1.000000 0.092433
0.445798 1.000000 0.092433
0.518084 1.000000 0.092433
0.590569 1.000000 0.092433
0.663229 1.000000 0.092433
0.736045 1.000000 0.092433
0.809004 1.000000 0.092433
0.882092 1.000000 0.092433
0.955299 1.000000 0.092433
1.000000 1.000000 0.092433
1.000000 1.000000 0.092433
0.019974 0.000000 0.165412
0.089132 0.000000 0.165412
0.159505 0.000000 0.165412
0.230513 0.000000 0.165412
0.301959 0.000000 0.165412
0.373742 0.000000 0.165412
0.445798 0.000000 0.165412
0.518084 0.000000 0.165412
0.590569 0.000000 0.165412
0.663229 0.000000 0.165412
0.736045 0.000000 0.165412
0.809004 0.000000 0.165412
0.882092 0.000000 0.165412
0.955299 0.000000 0.165412
1.000000 0.000000 0.165412
1.000000 0.000000 0.165412
0.019974 0.068000 0.165412
0.089132 0.068000 0.165412
0.159505 0.068000 0.165412
0.230513 0.068000 0.165412
0.301959 0.068000 0.165412
0.373742 0.068000 0.165412
0.445798 0.068000 0.165412
0.518084 0.068000 0.165412
0.590569 0.068000 0.165412
0.663229 0.068000 0.165412
0.736045 0.068000 0.165412
0.809004 0.068000 0.165412
0.882092 0.068000 0.165412
0.955299 0.068000 0.165412
1.000000 0.068000 0.165412
1.000000 0.068000 0.165412
0.019974 0.136000 0.165412
0.089132 0.136000 0.165412
0.159505 0.136000 0.165412
0.230513 0.136000 0.165412
0.301959 0.136000 0.165412
0.373742 0.136000 0.165412
0.445798 0.136000 0.165412
0.518084 0.136000 0.165412
0.590569 0.136000 0.165412
0.663229 0.136000 0.165412
0.736045 0.136000 0.165412
0.809004 0.136000 0.165412
0.882092 0.136000 0.165412
0.955299 0.136000 0.165412
1.000000 0.136000 0.165412
1.000000 0.136000 0.165412
0.019974 0.204000 0.165412
0.089132 0.204000 0.165412
0.159505 0.204000 0.165412
0.230513 0.204000 0.165412
0.301959 0.204000 0.165412
0.373742 0.204000 0.165412
0.445798 0.204000 0.165412
0.518084 0.204000 0.165412
0.590569 0.204000 0.165412
0.663229 0.204000 0.165412
0.736045 0.204000 0.165412
0.809004 0.204000 0.165412
0.882092 0.204000 0.165412
0.955299 0.204000 0.165412
1.000000 0.204000 0.165412
1.000000 0.204000 0.165412
0.019974 0.272000 0.165412
0.089132 0.272000 0.165412
0.159505 0.272000 0.165412
0.230513 0.272000 0.165412
0.301959 0.272000 0.165412
0.373742 0.272000 0.165412
0.445798 0.272000 0.165412
0.518084 0.272000 0.165412
0.590569 0.272000 0.165412
0.663229 0.272000 0.165412
0.736045 0.272000 0.165412
0.809004 0.272000 0.165412
0.882092 0.272000 0.165412
0.955299 0.272000 0.165412
1.000000 0.272000 0.165412
1.000000 0.272000 0.165412
0.019974 0.340000 0.165412
0.089132 0.340000 0.165412
0.159505 0.340000 0.165412
0.230513 0.340000 0.165412
0.301959 0.340000 0.165412
0.373742 0.340000 0.165412
0.445798 0.340000 0.165412
0.518084 0.340000 0.165412
0.590569 0.340000 0.165412
0.663229 0.340000 0.165412
0.736045 0.340000 0.165412
0.809004 0.340000 0.165412
0.882092 0.340000 0.165412
0.955299 0.340000 0.165412
1.000000 0.340000 0.165412
1.000000 0.340000 0.165412
0.019974 0.408000 0.165412
0.089132 0.408000 0.165412
0.159505 0.408000 0.165412
0.230513 0.408000 0.165412
0.301959 0.408000 0.165412
0.373742 0.408000 0.165412
0.445798 0.408000 0.165412
0.518084 0.408000 0.165412
0.590569 0.408000 0.165412
0.663229 0.408000 0.165412
0.736045 0.408000 0.165412
0.809004 0.408000 0.165412
0.882092 0.408000 0.165412
0.955299 0.408000 0.165412
1.000000 0.408000 0.165412
1.000000 0.408000 0.165412
0.019974 0.476000 0.165412
0.089132 0.476000 0.165412
0.159505 0.476000 0.165412
0.230513 0.476000 0.165412
0.301959 0.476000 0.165412
0.373742 0.476000 0.165412
0.445798 0.476000 0.165412
0.518084 0.476000 0.165412
0.590569 0.476000 0.165412
0.663229 0.476000 0.165412
0.736045 0.476000 0.165412
0.809004 0.476000 0.165412
0.882092 0.476000 0.165412
0.955299 0.476000 0.165412
1.000000 0.476000 0.165412
1.000000 0.476000 0.165412
0.019974 0.544000 0.165412
0.089132 0.544000 0.165412
0.159505 0.544000 0.165412
0.230513 0.544000 0.165412
0.301959 0.544000 0.165412
0.373742 0.544000 0.165412
0.445798 0.544000 0.165412
0.518084 0.544000 0.165412
0.590569 0.544000 0.165412
0.663229 0.544000 0.165412
0.736045 0.544000 0.165412
0.809004 0.544000 0.165412
0.882092 0.544000 0.165412
0.955299 0.544000 0.165412
1.000000 0.544000 0.165412
1.000000 0.544000 0.165412
0.019974 0.612000 0.165412
0.089132 0.612000 0.165412
0.159505 0.612000 0.165412
0.230513 0.612000 0.165412
0.301959 0.612000 0.165412
0.373742 0.612000 0.165412
0.445798 0.612000 0.165412
0.518084 0.612000 0.165412
0.590569 0.612000 0.165412
0.663229 0.612000 0.165412
0.736045 0.612000 0.165412
0.809004 0.612000 0.165412
0.882092 0.612000 0.165412
0.955299 0.612000 0.165412
1.000000 0.612000 0.165412
1.000000 0.612000 0.165412
0.019974 0.680000 0.165412
0.089132 0.680000 0.165412
0.159505 0.680000 0.165412
0.230513 0.680000 0.165412
0.301959 0.680000 0.165412
0.373742 0.680000 0.165412
0.445798 0.680000 0.165412
0.518084 0.680000 0.165412
0.590569 0.680000 0.165412
0.663229 0.680000 0.165412
0.736045 0.680000 0.165412
0.809004 0.680000 0.165412
0.882092 0.680000 0.165412
0.955299 0.680000 0.165412
1.000000 0.680000 0.165412
1.000000 0.680000 0.165412
0.019974 0.748000 0.165412
0.089132 0.748000 0.165412
0.159505 0.748000 0.165412
0.230513 0.748000 0.165412
0.301959 0.748000 0.165412
0.373742 0.748000 0.165412
0.445798 0.748000 0.165412
0.518084 0.748000 0.165412
0.590569 0.748000 0.165412
0.663229 0.748000 0.165412
0.736045 0.748000 0.165412
0.809004 0.748000 0.165412
0.882092 0.748000 0.165412
0.955299 0.748000 0.165412
1.000000 0.748000 0.165412
1.000000 0.748000 0.165412
0.019974 0.816000 0.165412
0.089132 0.816000 0.165412
0.159505 0.816000 0.165412
0.230513 0.816000 0.165412
0.301959 0.816000 0.165412
0.373742 0.816000 0.165412
0.445798 0.816000 0.165412
0.518084 0.816000 0.165412
0.590569 0.816000 0.165412
0.663229 0.816000 0.165412
0.736045 0.816000 0.165412
0.809004 0.816000 0.165412
0.882092 0.816000 0.165412
0.955299 0.816000 0.165412
1.000000 0.816000 0.165412
1.000000 0.816000 0.165412
0.019974 0.884000 0.165412
0.089132 0.884000 0.165412
0.159505 0.884000 0.165412
0.230513 0.884000 0.165412
0.301959 0.884000 0.165412
0.373742 0.884000 0.165412
0.445798 0.884000 0.165412
0.518084 0.884000 0.165412
0.590569 0.884000 0.165412
0.663229 0.884000 0.165412
0.736045 0.884000 0.165412
0.809004 0.884000 0.165412
0.882092 0.884000 0.165412
0.955299 0.884000 0.165412
1.000000 0.884000 0.165412
1.000000 0.884000 0.165412
0.019974 0.952000 0.165412
0.089132 0.952000 0.165412
0.159505 0.952000 0.165412
0.230513 0.952000 0.165412
0.301959 0.952000 0.165412
0.373742 0.952000 0.165412
0.445798 0.952000 0.165412
0.518084 0.952000 0.165412
0.590569 0.952000 0.165412
0.663229 0.952000 0.165412
0.736045 0.952000 0.165412
0.809004 0.952000 0.165412
0.882092 0.952000 0.165412
0.955299 0.952000 0.165412
1.000000 0.952000 0.165412
1.000000 0.952000 0.165412
0.019974 1.000000 0.165412
0.089132 1.000000 0.165412
0.159505 1.000000 0.165412
0.230513 1.000000 0.165412
0.301959 1.000000 0.165412
0.373742 1.000000 0.165412
0.445798 1.000000 0.165412
0.518084 1.000000 0.165412
0.590569 1.000000 0.165412
0.663229 1.000000 0.165412
0.736045 1.000000 0.165412
0.809004 1.000000 0.165412
0.882092 1.000000 0.165412
0.955299 1.000000 0.165412
1.000000 1.000000 0.165412
1.000000 1.000000 0.165412
0.019974 0.000000 0.239050
0.089132 0.000000 0.239050
0.159505 0.000000 0.239050
0.230513 0.000000 0.239050
0.301959 0.000000 0.239050
0.373742 0.000000 0.239050
0.445798 0.000000 0.239050
0.518084 0.000000 0.239050
0.590569 0.000000 0.239050
0.663229 0.000000 0.239050
0.736045 0.000000 0.239050
0.809004 0.000000 0.239050
0.882092 0.000000 0.239050
0.955299 0.000000 0.239050
1.000000 0.000000 0.239050
1.000000 0.000000 0.239050
0.019974 0.068000 0.239050
0.089132 0.068000 0.239050
0.159505 0.068000 0.239050
0.230513 0.068000 0.239050
0.301959 0.068000 0.239050
0.373742 0.068000 0.239050
0.445798 0.068000 0.239050
0.518084 0.068000 0.239050
0.590569 0.068000 0.239050
0.663229 0.068000 0.239050
0.736045 0.068000 0.239050
0.809004 0.068000 0.239050
0.882092 0.068000 0.239050
0.955299 0.068000 0.239050
1.000000 0.068000 0.239050
1.000000 0.068000 0.239050
0.019974 0.136000 0.239050
0.089132 0.136000 0.239050
0.159505 0.136000 0.239050
0.230513 0.136000 0.239050
0.301959 0.136000 0.239050
0.373742 0.136000 0.239050
0.445798 0.136000 0.239050
0.518084 0.136000 0.239050
0.590569 0.136000 0.239050
0.663229 0.136000 0.239050
0.736045 0.136000 0.239050
0.809004 0.136000 0.239050
0.882092 0.136000 0.239050
0.955299 0.136000 0.239050
1.000000 0.136000 0.239050
1.000000 0.136000 0.239050
0.019974 0.204000 0.239050
0.089132 0.204000 0.239050
0.159505 0.204000 0.239050
0.230513 0.204000 0.239050
0.301959 0.204000 0.239050
0.373742 0.204000 0.239050
0.445798 0.204000 0.239050
0.518084 0.204000 0.239050
0.590569 0.204000 0.239050
0.663229 0.204000 0.239050
0.736045 0.204000 0.239050
0.809004 0.204000 0.239050
0.882092 0.204000 0.239050
0.955299 0.204000 0.239050
1.000000 0.204000 0.239050
1.000000 0.204000 0.239050
0.019974 0.272000 0.239050
0.089132 0.272000 0.239050
0.159505 0.272000 0.239050
0.230513 0.272000 0.239050
0.301959 0.272000 0.239050
0.373742 0.272000 0.239050
0.445798 0.272000 0.239050
0.518084 0.272000 0.239050
0.590569 0.272000 0.239050
0.663229 0.272000 0.239050
0.736045 0.272000 0.239050
0.809004 0.272000 0.239050
0.882092 0.272000 0.239050
0.955299 0.272000 0.239050
1.000000 0.272000 0.239050
1.000000 0.272000 0.239050
0.019974 0.340000 0.239050
0.089132 0.340000 0.239050
0.159505 0.340000 0.239050
0.230513 0.340000 0.239050
0.301959 0.340000 0.239050
0.373742 0.340000 0.239050
0.445798 0.340000 0.239050
0.518084 0.340000 0.239050
0.590569 0.340000 0.239050
0.663229 0.340000 0.239050
0.736045 0.340000 0.239050
0.809004 0.340000 0.239050
0.882092 0.340000 0.239050
0.955299 0.340000 0.239050
1.000000 0.340000 0.239050
1.000000 0.340000 0.239050
0.019974 0.408000 0.239050
0.089132 0.408000 0.239050
0.159505 0.408000 0.239050
0.230513 0.408000 0.239050
0.301959 0.408000 0.239050
0.373742 0.408000 0.239050
0.445798 0.408000 0.239050
0.518084 0.408000 0.239050
0.590569 0.408000 0.239050
0.663229 0.408000 0.239050
0.736045 0.408000 0.239050
0.809004 0.408000 0.239050
0.882092 0.408000 0.239050
0.955299 0.408000 0.239050
1.000000 0.408000 0.239050
1.000000 0.408000 0.239050
0.019974 0.476000 0.239050
0.089132 0.476000 0.239050
0.159505 0.476000 0.239050
0.230513 0.476000 0.239050
0.301959 0.476000 0.239050
0.373742 0.476000 0.239050
0.445798 0.476000 0.239050
0.518084 0.476000 0.239050
