project/assets/noai_beautify/luts/haute_16.cube
# Haute
LUT_3D_SIZE 6
0.019974 0.000000 0.020714
0.230513 0.000000 0.020714
0.445798 0.000000 0.020714
0.663229 0.000000 0.020714
0.882092 0.000000 0.020714
1.000000 0.000000 0.020714
0.019974 0.204000 0.020714
0.230513 0.204000 0.020714
0.445798 0.204000 0.020714
0.663229 0.204000 0.020714
0.882092 0.204000 0.020714
1.000000 0.204000 0.020714
0.019974 0.408000 0.020714
0.230513 0.408000 0.020714
0.445798 0.408000 0.020714
0.663229 0.408000 0.020714
0.882092 0.408000 0.020714
1.000000 0.408000 0.020714
0.019974 0.612000 0.020714
0.230513 0.612000 0.020714
0.445798 0.612000 0.020714
0.663229 0.612000 0.020714
0.882092 0.612000 0.020714
1.000000 0.612000 0.020714
0.019974 0.816000 0.020714
0.230513 0.816000 0.020714
0.445798 0.816000 0.020714
0.663229 0.816000 0.020714
0.882092 0.816000 0.020714
1.000000 0.816000 0.020714
0.019974 1.000000 0.020714
0.230513 1.000000 0.020714
0.445798 1.000000 0.020714
0.663229 1.000000 0.020714
0.882092 1.000000 0.020714
1.000000 1.000000 0.020714
0.019974 0.000000 0.239050
0.230513 0.000000 0.239050
0.445798 0.000000 0.239050
0.663229 0.000000 0.239050
0.882092 0.000000 0.239050
1.000000 0.000000 0.239050
0.019974 0.204000 0.239050
0.230513 0.204000 0.239050
0.445798 0.204000 0.239050
0.663229 0.204000 0.239050
0.882092 0.204000 0.239050
1.000000 0.204000 0.239050
0.019974 0.408000 0.239050
0.230513 0.408000 0.239050
0.445798 0.408000 0.239050
0.663229 0.408000 0.239050
0.882092 0.408000 0.239050
1.000000 0.408000 0.239050
0.019974 0.612000 0.239050
0.230513 0.612000 0.239050
0.445798 0.612000 0.239050
0.663229 0.612000 0.239050
0.882092 0.612000 0.239050
1.000000 0.612000 0.239050
0.019974 0.816000 0.239050
0.230513 0.816000 0.239050
0.445798 0.816000 0.239050
0.663229 0.816000 0.239050
0.882092 0.816000 0.239050
1.000000 0.816000 0.239050
0.019974 1.000000 0.239050
0.230513 1.000000 0.239050
0.445798 1.000000 0.239050
0.663229 1.000000 0.239050
0.882092 1.000000 0.239050
1.000000 1.000000 0.239050
0.019974 0.000000 0.462309
0.230513 0.000000 0.462309
0.445798 0.000000 0.462309
0.663229 0.000000 0.462309
0.882092 0.000000 0.462309
1.000000 0.000000 0.462309
0.019974 0.204000 0.462309
0.230513 0.204000 0.462309
0.445798 0.204000 0.462309
0.663229 0.204000 0.462309
0.882092 0.204000 0.462309
1.000000 0.204000 0.462309
0.019974 0.408000 0.462309
0.230513 0.408000 0.462309
0.445798 0.408000 0.462309
0.663229 0.408000 0.462309
0.882092 0.408000 0.462309
1.000000 0.408000 0.462309
0.019974 0.612000 0.462309
0.230513 0.612000 0.462309
0.445798 0.612000 0.462309
0.663229 0.612000 0.462309
0.882092 0.612000 0.462309
1.000000 0.612000 0.462309
0.019974 0.816000 0.462309
0.230513 0.816000 0.462309
0.445798 0.816000 0.462309
0.663229 0.816000 0.462309
0.882092 0.816000 0.462309
1.000000 0.816000 0.462309
0.019974 1.000000 0.462309
0.230513 1.000000 0.462309
0.445798 1.000000 0.462309
0.663229 1.000000 0.462309
0.882092 1.000000 0.462309
1.000000 1.000000 0.462309
0.019974 0.000000 0.687793
0.230513 0.000000 0.687793
0.445798 0.000000 0.687793
0.663229 0.000000 0.687793
0.882092 0.000000 0.687793
1.000000 0.000000 0.687793
0.019974 0.204000 0.687793
0.230513 0.204000 0.687793
0.445798 0.204000 0.687793
0.663229 0.204000 0.687793
0.882092 0.204000 0.687793
1.000000 0.204000 0.687793
0.019974 0.408000 0.687793
0.230513 0.408000 0.687793
0.445798 0.408000 0.687793
0.663229 0.408000 0.687793
0.882092 0.408000 0.687793
1.000000 0.408000 0.687793
0.019974 0.612000 0.687793
0.230513 0.612000 0.687793
0.445798 0.612000 0.687793
0.663229 0.612000 0.687793
0.882092 0.612000 0.687793
1.000000 0.612000 0.687793
0.019974 0.816000 0.687793
0.230513 0.816000 0.687793
0.445798 0.816000 0.687793
0.663229 0.816000 0.687793
0.882092 0.816000 0.687793
1.000000 0.816000 0.687793
0.019974 1.000000 0.687793
0.230513 1.000000 0.687793
0.445798 1.000000 0.687793
0.663229 1.000000 0.687793
0.882092 1.000000 0.687793
1.000000 1.000000 0.687793
0.019974 0.000000 0.914762
0.230513 0.000000 0.914762
0.445798 0.000000 0.914762
0.663229 0.000000 0.914762
0.882092 0.000000 0.914762
1.000000 0.000000 0.914762
0.019974 0.204000 0.914762
0.230513 0.204000 0.914762
0.445798 0.204000 0.914762
0.663229 0.204000 0.914762
0.882092 0.204000 0.914762
1.000000 0.204000 0.914762
0.019974 0.408000 0.914762
0.230513 0.408000 0.914762
0.445798 0.408000 0.914762
0.663229 0.408000 0.914762
0.882092 0.408000 0.914762
1.000000 0.408000 0.914762
0.019974 0.612000 0.914762
0.230513 0.612000 0.914762
0.445798 0.612000 0.914762
0.663229 0.612000 0.914762
0.882092 0.612000 0.914762
1.000000 0.612000 0.914762
0.019974 0.816000 0.914762
0.230513 0.816000 0.914762
0.445798 0.816000 0.914762
0.663229 0.816000 0.914762
0.882092 0.816000 0.914762
1.000000 0.816000 0.914762
0.019974 1.000000 0.914762
0.230513 1.000000 0.914762
0.445798 1.000000 0.914762
0.663229 1.000000 0.914762
0.882092 1.000000 0.914762
1.000000 1.000000 0.914762
0.019974 0.000000 1.000000
0.230513 0.000000 1.000000
0.445798 0.000000 1.000000
0.663229 0.000000 1.000000
0.882092 0.000000 1.000000
1.000000 0.000000 1.000000
0.019974 0.204000 1.000000
0.230513 0.204000 1.000000
0.445798 0.204000 1.000000
0.663229 0.204000 1.000000
0.882092 0.204000 1.000000
1.000000 0.204000 1.000000
0.019974 0.408000 1.000000
0.230513 0.408000 1.000000
0.445798 0.408000 1.000000
0.663229 0.408000 1.000000
0.882092 0.408000 1.000000
1.000000 0.408000 1.000000
0.019974 0.612000 1.000000
0.230513 0.612000 1.000000
0.445798 0.612000 1.000000
0.663229 0.612000 1.000000
0.882092 0.612000 1.000000
1.000000 0.612000 1.000000
0.019974 0.816000 1.000000
0.230513 0.816000 1.000000
0.445798 0.816000 1.000000
0.663229 0.816000 1.000000
0.882092 0.816000 1.000000
1.000000 0.816000 1.000000
0.019974 1.000000 1.000000
0.230513 1.000000 1.000000
0.445798 1.000000 1.000000
0.663229 1.000000 1.000000
0.882092 1.000000 1.000000
1.000000 1.000000 1.000000
