project/assets/noai_beautify/luts/noir_16.cube
# Noir
LUT_3D_SIZE 6
0.000000 0.000000 0.000000
0.153787 0.000000 0.000000
0.344661 0.000000 0.000000
0.544162 0.000000 0.000000
0.749356 0.000000 0.000000
0.958849 0.000000 0.000000
0.000000 0.171429 0.000000
0.153787 0.171429 0.000000
0.344661 0.171429 0.000000
0.544162 0.171429 0.000000
0.749356 0.171429 0.000000
0.958849 0.171429 0.000000
0.000000 0.372885 0.000000
0.153787 0.372885 0.000000
0.344661 0.372885 0.000000
0.544162 0.372885 0.000000
0.749356 0.372885 0.000000
0.958849 0.372885 0.000000
0.000000 0.578849 0.000000
0.153787 0.578849 0.000000
0.344661 0.578849 0.000000
0.544162 0.578849 0.000000
0.749356 0.578849 0.000000
0.958849 0.578849 0.000000
0.000000 0.787732 0.000000
0.153787 0.787732 0.000000
0.344661 0.787732 0.000000
0.544162 0.787732 0.000000
0.749356 0.787732 0.000000
0.958849 0.787732 0.000000
0.000000 0.998793 0.000000
0.153787 0.998793 0.000000
0.344661 0.998793 0.000000
0.544162 0.998793 0.000000
0.749356 0.998793 0.000000
0.958849 0.998793 0.000000
0.000000 0.000000 0.192983
0.153787 0.000000 0.192983
0.344661 0.000000 0.192983
0.544162 0.000000 0.192983
0.749356 0.000000 0.192983
0.958849 0.000000 0.192983
0.000000 0.171429 0.192983
0.153787 0.171429 0.192983
0.344661 0.171429 0.192983
0.544162 0.171429 0.192983
0.749356 0.171429 0.192983
0.958849 0.171429 0.192983
0.000000 0.372885 0.192983
0.153787 0.372885 0.192983
0.344661 0.372885 0.192983
0.544162 0.372885 0.192983
0.749356 0.372885 0.192983
0.958849 0.372885 0.192983
0.000000 0.578849 0.192983
0.153787 0.578849 0.192983
0.344661 0.578849 0.192983
0.544162 0.578849 0.192983
0.749356 0.578849 0.192983
0.958849 0.578849 0.192983
0.000000 0.787732 0.192983
0.153787 0.787732 0.192983
0.344661 0.787732 0.192983
0.544162 0.787732 0.192983
0.749356 0.787732 0.192983
0.958849 0.787732 0.192983
0.000000 0.998793 0.192983
0.153787 0.998793 0.192983
0.344661 0.998793 0.192983
0.544162 0.998793 0.192983
0.749356 0.998793 0.192983
0.958849 0.998793 0.192983
0.000000 0.000000 0.401860
0.153787 0.000000 0.401860
0.344661 0.000000 0.401860
0.544162 0.000000 0.401860
0.749356 0.000000 0.401860
0.958849 0.000000 0.401860
0.000000 0.171429 0.401860
0.153787 0.171429 0.401860
0.344661 0.171429 0.401860
0.544162 0.171429 0.401860
0.749356 0.171429 0.401860
0.958849 0.171429 0.401860
0.000000 0.372885 0.401860
0.153787 0.372885 0.401860
0.344661 0.372885 0.401860
0.544162 0.372885 0.401860
0.749356 0.372885 0.401860
0.958849 0.372885 0.401860
0.000000 0.578849 0.401860
0.153787 0.578849 0.401860
0.344661 0.578849 0.401860
0.544162 0.578849 0.401860
0.749356 0.578849 0.401860
0.958849 0.578849 0.401860
0.000000 0.787732 0.401860
0.153787 0.787732 0.401860
0.344661 0.787732 0.401860
0.544162 0.787732 0.401860
0.749356 0.787732 0.401860
0.958849 0.787732 0.401860
0.000000 0.998793 0.401860
0.153787 0.998793 0.401860
0.344661 0.998793 0.401860
0.544162 0.998793 0.401860
0.749356 0.998793 0.401860
0.958849 0.998793 0.401860
0.000000 0.000000 0.612997
0.153787 0.000000 0.612997
0.344661 0.000000 0.612997
0.544162 0.000000 0.612997
0.749356 0.000000 0.612997
0.958849 0.000000 0.612997
0.000000 0.171429 0.612997
0.153787 0.171429 0.612997
0.344661 0.171429 0.612997
0.544162 0.171429 0.612997
0.749356 0.171429 0.612997
0.958849 0.171429 0.612997
0.000000 0.372885 0.612997
0.153787 0.372885 0.612997
0.344661 0.372885 0.612997
0.544162 0.372885 0.612997
0.749356 0.372885 0.612997
0.958849 0.372885 0.612997
0.000000 0.578849 0.612997
0.153787 0.578849 0.612997
0.344661 0.578849 0.612997
0.544162 0.578849 0.612997
0.749356 0.578849 0.612997
0.958849 0.578849 0.612997
0.000000 0.787732 0.612997
0.153787 0.787732 0.612997
0.344661 0.787732 0.612997
0.544162 0.787732 0.612997
0.749356 0.787732 0.612997
0.958849 0.787732 0.612997
0.000000 0.998793 0.612997
0.153787 0.998793 0.612997
0.344661 0.998793 0.612997
0.544162 0.998793 0.612997
0.749356 0.998793 0.612997
0.958849 0.998793 0.612997
0.000000 0.000000 0.825599
0.153787 0.000000 0.825599
0.344661 0.000000 0.825599
0.544162 0.000000 0.825599
0.749356 0.000000 0.825599
0.958849 0.000000 0.825599
0.000000 0.171429 0.825599
0.153787 0.171429 0.825599
0.344661 0.171429 0.825599
0.544162 0.171429 0.825599
0.749356 0.171429 0.825599
0.958849 0.171429 0.825599
0.000000 0.372885 0.825599
0.153787 0.372885 0.825599
0.344661 0.372885 0.825599
0.544162 0.372885 0.825599
0.749356 0.372885 0.825599
0.958849 0.372885 0.825599
0.000000 0.578849 0.825599
0.153787 0.578849 0.825599
0.344661 0.578849 0.825599
0.544162 0.578849 0.825599
0.749356 0.578849 0.825599
0.958849 0.578849 0.825599
0.000000 0.787732 0.825599
0.153787 0.787732 0.825599
0.344661 0.787732 0.825599
0.544162 0.787732 0.825599
0.749356 0.787732 0.825599
0.958849 0.787732 0.825599
0.000000 0.998793 0.825599
0.153787 0.998793 0.825599
0.344661 0.998793 0.825599
0.544162 0.998793 0.825599
0.749356 0.998793 0.825599
0.958849 0.998793 0.825599
0.000000 0.000000 1.000000
0.153787 0.000000 1.000000
0.344661 0.000000 1.000000
0.544162 0.000000 1.000000
0.749356 0.000000 1.000000
0.958849 0.000000 1.000000
0.000000 0.171429 1.000000
0.153787 0.171429 1.000000
0.344661 0.171429 1.000000
0.544162 0.171429 1.000000
0.749356 0.171429 1.000000
0.958849 0.171429 1.000000
0.000000 0.372885 1.000000
0.153787 0.372885 1.000000
0.344661 0.372885 1.000000
0.544162 0.372885 1.000000
0.749356 0.372885 1.000000
0.958849 0.372885 1.000000
0.000000 0.578849 1.000000
0.153787 0.578849 1.000000
0.344661 0.578849 1.000000
0.544162 0.578849 1.000000
0.749356 0.578849 1.000000
0.958849 0.578849 1.000000
0.000000 0.787732 1.000000
0.153787 0.787732 1.000000
0.344661 0.787732 1.000000
0.544162 0.787732 1.000000
0.749356 0.787732 1.000000
0.958849 0.787732 1.000000
0.000000 0.998793 1.000000
0.153787 0.998793 1.000000
0.344661 0.998793 1.000000
0.544162 0.998793 1.000000
0.749356 0.998793 1.000000
0.958849 0.998793 1.000000
