project/assets/noai_beautify/luts/noir_16.cube
# Noir
LUT_3D_SIZE 16
0.000000 0.000000 0.000000
0.035789 0.000000 0.000000
0.093311 0.000000 0.000000
0.153787 0.000000 0.000000
0.216125 0.000000 0.000000
0.279842 0.000000 0.000000
0.344661 0.000000 0.000000
0.410401 0.000000 0.000000
0.476933 0.000000 0.000000
0.544162 0.000000 0.000000
0.612013 0.000000 0.000000
0.680428 0.000000 0.000000
0.749356 0.000000 0.000000
0.818758 0.000000 0.000000
0.888599 0.000000 0.000000
0.958849 0.000000 0.000000
0.000000 0.042108 0.000000
0.035789 0.042108 0.000000
0.093311 0.042108 0.000000
0.153787 0.042108 0.000000
0.216125 0.042108 0.000000
0.279842 0.042108 0.000000
0.344661 0.042108 0.000000
0.410401 0.042108 0.000000
0.476933 0.042108 0.000000
0.544162 0.042108 0.000000
0.612013 0.042108 0.000000
0.680428 0.042108 0.000000
0.749356 0.042108 0.000000
0.818758 0.042108 0.000000
0.888599 0.042108 0.000000
0.958849 0.042108 0.000000
0.000000 0.105958 0.000000
0.035789 0.105958 0.000000
0.093311 0.105958 0.000000
0.153787 0.105958 0.000000
0.216125 0.105958 0.000000
0.279842 0.105958 0.000000
0.344661 0.105958 0.000000
0.410401 0.105958 0.000000
0.476933 0.105958 0.000000
0.544162 0.105958 0.000000
0.612013 0.105958 0.000000
0.680428 0.105958 0.000000
0.749356 0.105958 0.000000
0.818758 0.105958 0.000000
0.888599 0.105958 0.000000
0.958849 0.105958 0.000000
0.000000 0.171429 0.000000
0.035789 0.171429 0.000000
0.093311 0.171429 0.000000
0.153787 0.171429 0.000000
0.216125 0.171429 0.000000
0.279842 0.171429 0.000000
0.344661 0.171429 0.000000
0.410401 0.171429 0.000000
0.476933 0.171429 0.000000
0.544162 0.171429 0.000000
0.612013 0.171429 0.000000
0.680428 0.171429 0.000000
0.749356 0.171429 0.000000
0.818758 0.171429 0.000000
0.888599 0.171429 0.000000
0.958849 0.171429 0.000000
0.000000 0.237900 0.000000
0.035789 0.237900 0.000000
0.093311 0.237900 0.000000
0.153787 0.237900 0.000000
0.216125 0.237900 0.000000
0.279842 0.237900 0.000000
0.344661 0.237900 0.000000
0.410401 0.237900 0.000000
0.476933 0.237900 0.000000
0.544162 0.237900 0.000000
0.612013 0.237900 0.000000
0.680428 0.237900 0.000000
0.749356 0.237900 0.000000
0.818758 0.237900 0.000000
0.888599 0.237900 0.000000
0.958849 0.237900 0.000000
0.000000 0.305103 0.000000
0.035789 0.305103 0.000000
0.093311 0.305103 0.000000
0.153787 0.305103 0.000000
0.216125 0.305103 0.000000
0.279842 0.305103 0.000000
0.344661 0.305103 0.000000
0.410401 0.305103 0.000000
0.476933 0.305103 0.000000
0.544162 0.305103 0.000000
0.612013 0.305103 0.000000
0.680428 0.305103 0.000000
0.749356 0.305103 0.000000
0.818758 0.305103 0.000000
0.888599 0.305103 0.000000
0.958849 0.305103 0.000000
0.000000 0.372885 0.000000
0.035789 0.372885 0.000000
0.093311 0.372885 0.000000
0.153787 0.372885 0.000000
0.216125 0.372885 0.000000
0.279842 0.372885 0.000000
0.344661 0.372885 0.000000
0.410401 0.372885 0.000000
0.476933 0.372885 0.000000
0.544162 0.372885 0.000000
0.612013 0.372885 0.000000
0.680428 0.372885 0.000000
0.749356 0.372885 0.000000
0.818758 0.372885 0.000000
0.888599 0.372885 0.000000
0.958849 0.372885 0.000000
0.000000 0.441147 0.000000
0.035789 0.441147 0.000000
0.093311 0.441147 0.000000
0.153787 0.441147 0.000000
0.216125 0.441147 0.000000
0.279842 0.441147 0.000000
0.344661 0.441147 0.000000
0.410401 0.441147 0.000000
0.476933 0.441147 0.000000
0.544162 0.441147 0.000000
0.612013 0.441147 0.000000
0.680428 0.441147 0.000000
0.749356 0.441147 0.000000
0.818758 0.441147 0.000000
0.888599 0.441147 0.000000
0.958849 0.441147 0.000000
0.000000 0.509819 0.000000
0.035789 0.509819 0.000000
0.093311 0.509819 0.000000
0.153787 0.509819 0.000000
0.216125 0.509819 0.000000
0.279842 0.509819 0.000000
0.344661 0.509819 0.000000
0.410401 0.509819 0.000000
0.476933 0.509819 0.000000
0.544162 0.509819 0.000000
0.612013 0.509819 0.000000
0.680428 0.509819 0.000000
0.749356 0.509819 0.000000
0.818758 0.509819 0.000000
0.888599 0.509819 0.000000
0.958849 0.509819 0.000000
0.000000 0.578849 0.000000
0.035789 0.578849 0.000000
0.093311 0.578849 0.000000
0.153787 0.578849 0.000000
0.216125 0.578849 0.000000
0.279842 0.578849 0.000000
0.344661 0.578849 0.000000
0.410401 0.578849 0.000000
0.476933 0.578849 0.000000
0.544162 0.578849 0.000000
0.612013 0.578849 0.000000
0.680428 0.578849 0.000000
0.749356 0.578849 0.000000
0.818758 0.578849 0.000000
0.888599 0.578849 0.000000
0.958849 0.578849 0.000000
0.000000 0.648198 0.000000
0.035789 0.648198 0.000000
0.093311 0.648198 0.000000
0.153787 0.648198 0.000000
0.216125 0.648198 0.000000
0.279842 0.648198 0.000000
0.344661 0.648198 0.000000
0.410401 0.648198 0.000000
0.476933 0.648198 0.000000
0.544162 0.648198 0.000000
0.612013 0.648198 0.000000
0.680428 0.648198 0.000000
0.749356 0.648198 0.000000
0.818758 0.648198 0.000000
0.888599 0.648198 0.000000
0.958849 0.648198 0.000000
0.000000 0.717835 0.000000
0.035789 0.717835 0.000000
0.093311 0.717835 0.000000
0.153787 0.717835 0.000000
0.216125 0.717835 0.000000
0.279842 0.717835 0.000000
0.344661 0.717835 0.000000
0.410401 0.717835 0.000000
0.476933 0.717835 0.000000
0.544162 0.717835 0.000000
0.612013 0.717835 0.000000
0.680428 0.717835 0.000000
0.749356 0.717835 0.000000
0.818758 0.717835 0.000000
0.888599 0.717835 0.000000
0.958849 0.717835 0.000000
0.000000 0.787732 0.000000
0.035789 0.787732 0.000000
0.093311 0.787732 0.000000
0.153787 0.787732 0.000000
0.216125 0.787732 0.000000
0.279842 0.787732 0.000000
0.344661 0.787732 0.000000
0.410401 0.787732 0.000000
0.476933 0.787732 0.000000
0.544162 0.787732 0.000000
0.612013 0.787732 0.000000
0.680428 0.787732 0.000000
0.749356 0.787732 0.000000
0.818758 0.787732 0.000000
0.888599 0.787732 0.000000
0.958849 0.787732 0.000000
0.000000 0.857869 0.000000
0.035789 0.857869 0.000000
0.093311 0.857869 0.000000
0.153787 0.857869 0.000000
0.216125 0.857869 0.000000
0.279842 0.857869 0.000000
0.344661 0.857869 0.000000
0.410401 0.857869 0.000000
0.476933 0.857869 0.000000
0.544162 0.857869 0.000000
0.612013 0.857869 0.000000
0.680428 0.857869 0.000000
0.749356 0.857869 0.000000
0.818758 0.857869 0.000000
0.888599 0.857869 0.000000
0.958849 0.857869 0.000000
0.000000 0.928228 0.000000
0.035789 0.928228 0.000000
0.093311 0.928228 0.000000
0.153787 0.928228 0.000000
0.216125 0.928228 0.000000
0.279842 0.928228 0.000000
0.344661 0.928228 0.000000
0.410401 0.928228 0.000000
0.476933 0.928228 0.000000
0.544162 0.928228 0.000000
0.612013 0.928228 0.000000
0.680428 0.928228 0.000000
0.749356 0.928228 0.000000
0.818758 0.928228 0.000000
0.888599 0.928228 0.000000
0.958849 0.928228 0.000000
0.000000 0.998793 0.000000
0.035789 0.998793 0.000000
0.093311 0.998793 0.000000
0.153787 0.998793 0.000000
0.216125 0.998793 0.000000
0.279842 0.998793 0.000000
0.344661 0.998793 0.000000
0.410401 0.998793 0.000000
0.476933 0.998793 0.000000
0.544162 0.998793 0.000000
0.612013 0.998793 0.000000
0.680428 0.998793 0.000000
0.749356 0.998793 0.000000
0.818758 0.998793 0.000000
0.888599 0.998793 0.000000
0.958849 0.998793 0.000000
0.000000 0.000000 0.056180
0.035789 0.000000 0.056180
0.093311 0.000000 0.056180
0.153787 0.000000 0.056180
0.216125 0.000000 0.056180
0.279842 0.000000 0.056180
0.344661 0.000000 0.056180
0.410401 0.000000 0.056180
0.476933 0.000000 0.056180
0.544162 0.000000 0.056180
0.612013 0.000000 0.056180
0.680428 0.000000 0.056180
0.749356 0.000000 0.056180
0.818758 0.000000 0.056180
0.888599 0.000000 0.056180
0.958849 0.000000 0.056180
0.000000 0.042108 0.056180
0.035789 0.042108 0.056180
0.093311 0.042108 0.056180
0.153787 0.042108 0.056180
0.216125 0.042108 0.056180
0.279842 0.042108 0.056180
0.344661 0.042108 0.056180
0.410401 0.042108 0.056180
0.476933 0.042108 0.056180
0.544162 0.042108 0.056180
0.612013 0.042108 0.056180
0.680428 0.042108 0.056180
0.749356 0.042108 0.056180
0.818758 0.042108 0.056180
0.888599 0.042108 0.056180
0.958849 0.042108 0.056180
0.000000 0.105958 0.056180
0.035789 0.105958 0.056180
0.093311 0.105958 0.056180
0.153787 0.105958 0.056180
0.216125 0.105958 0.056180
0.279842 0.105958 0.056180
0.344661 0.105958 0.056180
0.410401 0.105958 0.056180
0.476933 0.105958 0.056180
0.544162 0.105958 0.056180
0.612013 0.105958 0.056180
0.680428 0.105958 0.056180
0.749356 0.105958 0.056180
0.818758 0.105958 0.056180
0.888599 0.105958 0.056180
0.958849 0.105958 0.056180
0.000000 0.171429 0.056180
0.035789 0.171429 0.056180
0.093311 0.171429 0.056180
0.153787 0.171429 0.056180
0.216125 0.171429 0.056180
0.279842 0.171429 0.056180
0.344661 0.171429 0.056180
0.410401 0.171429 0.056180
0.476933 0.171429 0.056180
0.544162 0.171429 0.056180
0.612013 0.171429 0.056180
0.680428 0.171429 0.056180
0.749356 0.171429 0.056180
0.818758 0.171429 0.056180
0.888599 0.171429 0.056180
0.958849 0.171429 0.056180
0.000000 0.237900 0.056180
0.035789 0.237900 0.056180
0.093311 0.237900 0.056180
0.153787 0.237900 0.056180
0.216125 0.237900 0.056180
0.279842 0.237900 0.056180
0.344661 0.237900 0.056180
0.410401 0.237900 0.056180
0.476933 0.237900 0.056180
0.544162 0.237900 0.056180
0.612013 0.237900 0.056180
0.680428 0.237900 0.056180
0.749356 0.237900 0.056180
0.818758 0.237900 0.056180
0.888599 0.237900 0.056180
0.958849 0.237900 0.056180
0.000000 0.305103 0.056180
0.035789 0.305103 0.056180
0.093311 0.305103 0.056180
0.153787 0.305103 0.056180
0.216125 0.305103 0.056180
0.279842 0.305103 0.056180
0.344661 0.305103 0.056180
0.410401 0.305103 0.056180
0.476933 0.305103 0.056180
0.544162 0.305103 0.056180
0.612013 0.305103 0.056180
0.680428 0.305103 0.056180
0.749356 0.305103 0.056180
0.818758 0.305103 0.056180
0.888599 0.305103 0.056180
0.958849 0.305103 0.056180
0.000000 0.372885 0.056180
0.035789 0.372885 0.056180
0.093311 0.372885 0.056180
0.153787 0.372885 0.056180
0.216125 0.372885 0.056180
0.279842 0.372885 0.056180
0.344661 0.372885 0.056180
0.410401 0.372885 0.056180
0.476933 0.372885 0.056180
0.544162 0.372885 0.056180
0.612013 0.372885 0.056180
0.680428 0.372885 0.056180
0.749356 0.372885 0.056180
0.818758 0.372885 0.056180
0.888599 0.372885 0.056180
0.958849 0.372885 0.056180
0.000000 0.441147 0.056180
0.035789 0.441147 0.056180
0.093311 0.441147 0.056180
0.153787 0.441147 0.056180
0.216125 0.441147 0.056180
0.279842 0.441147 0.056180
0.344661 0.441147 0.056180
0.410401 0.441147 0.056180
0.476933 0.441147 0.056180
0.544162 0.441147 0.056180
0.612013 0.441147 0.056180
0.680428 0.441147 0.056180
0.749356 0.441147 0.056180
0.818758 0.441147 0.056180
0.888599 0.441147 0.056180
0.958849 0.441147 0.056180
0.000000 0.509819 0.056180
0.035789 0.509819 0.056180
0.093311 0.509819 0.056180
0.153787 0.509819 0.056180
0.216125 0.509819 0.056180
0.279842 0.509819 0.056180
0.344661 0.509819 0.056180
0.410401 0.509819 0.056180
0.476933 0.509819 0.056180
0.544162 0.509819 0.056180
0.612013 0.509819 0.056180
0.680428 0.509819 0.056180
0.749356 0.509819 0.056180
0.818758 0.509819 0.056180
0.888599 0.509819 0.056180
0.958849 0.509819 0.056180
0.000000 0.578849 0.056180
0.035789 0.578849 0.056180
0.093311 0.578849 0.056180
0.153787 0.578849 0.056180
0.216125 0.578849 0.056180
0.279842 0.578849 0.056180
0.344661 0.578849 0.056180
0.410401 0.578849 0.056180
0.476933 0.578849 0.056180
0.544162 0.578849 0.056180
0.612013 0.578849 0.056180
0.680428 0.578849 0.056180
0.749356 0.578849 0.056180
0.818758 0.578849 0.056180
0.888599 0.578849 0.056180
0.958849 0.578849 0.056180
0.000000 0.648198 0.056180
0.035789 0.648198 0.056180
0.093311 0.648198 0.056180
0.153787 0.648198 0.056180
0.216125 0.648198 0.056180
0.279842 0.648198 0.056180
0.344661 0.648198 0.056180
0.410401 0.648198 0.056180
0.476933 0.648198 0.056180
0.544162 0.648198 0.056180
0.612013 0.648198 0.056180
0.680428 0.648198 0.056180
0.749356 0.648198 0.056180
0.818758 0.648198 0.056180
0.888599 0.648198 0.056180
0.958849 0.648198 0.056180
0.000000 0.717835 0.056180
0.035789 0.717835 0.056180
0.093311 0.717835 0.056180
0.153787 0.717835 0.056180
0.216125 0.717835 0.056180
0.279842 0.717835 0.056180
0.344661 0.717835 0.056180
0.410401 0.717835 0.056180
0.476933 0.717835 0.056180
0.544162 0.717835 0.056180
0.612013 0.717835 0.056180
0.680428 0.717835 0.056180
0.749356 0.717835 0.056180
0.818758 0.717835 0.056180
0.888599 0.717835 0.056180
0.958849 0.717835 0.056180
0.000000 0.787732 0.056180
0.035789 0.787732 0.056180
0.093311 0.787732 0.056180
0.153787 0.787732 0.056180
0.216125 0.787732 0.056180
0.279842 0.787732 0.056180
0.344661 0.787732 0.056180
0.410401 0.787732 0.056180
0.476933 0.787732 0.056180
0.544162 0.787732 0.056180
0.612013 0.787732 0.056180
0.680428 0.787732 0.056180
0.749356 0.787732 0.056180
0.818758 0.787732 0.056180
0.888599 0.787732 0.056180
0.958849 0.787732 0.056180
0.000000 0.857869 0.056180
0.035789 0.857869 0.056180
0.093311 0.857869 0.056180
0.153787 0.857869 0.056180
0.216125 0.857869 0.056180
0.279842 0.857869 0.056180
0.344661 0.857869 0.056180
0.410401 0.857869 0.056180
0.476933 0.857869 0.056180
0.544162 0.857869 0.056180
0.612013 0.857869 0.056180
0.680428 0.857869 0.056180
0.749356 0.857869 0.056180
0.818758 0.857869 0.056180
0.888599 0.857869 0.056180
0.958849 0.857869 0.056180
0.000000 0.928228 0.056180
0.035789 0.928228 0.056180
0.093311 0.928228 0.056180
0.153787 0.928228 0.056180
0.216125 0.928228 0.056180
0.279842 0.928228 0.056180
0.344661 0.928228 0.056180
0.410401 0.928228 0.056180
0.476933 0.928228 0.056180
0.544162 0.928228 0.056180
0.612013 0.928228 0.056180
0.680428 0.928228 0.056180
0.749356 0.928228 0.056180
0.818758 0.928228 0.056180
0.888599 0.928228 0.056180
0.958849 0.928228 0.056180
0.000000 0.998793 0.056180
0.035789 0.998793 0.056180
0.093311 0.998793 0.056180
0.153787 0.998793 0.056180
0.216125 0.998793 0.056180
0.279842 0.998793 0.056180
0.344661 0.998793 0.056180
0.410401 0.998793 0.056180
0.476933 0.998793 0.056180
0.544162 0.998793 0.056180
0.612013 0.998793 0.056180
0.680428 0.998793 0.056180
0.749356 0.998793 0.056180
0.818758 0.998793 0.056180
0.888599 0.998793 0.056180
0.958849 0.998793 0.056180
0.000000 0.000000 0.124191
0.035789 0.000000 0.124191
0.093311 0.000000 0.124191
0.153787 0.000000 0.124191
0.216125 0.000000 0.124191
0.279842 0.000000 0.124191
0.344661 0.000000 0.124191
0.410401 0.000000 0.124191
0.476933 0.000000 0.124191
0.544162 0.000000 0.124191
0.612013 0.000000 0.124191
0.680428 0.000000 0.124191
0.749356 0.000000 0.124191
0.818758 0.000000 0.124191
0.888599 0.000000 0.124191
0.958849 0.000000 0.124191
0.000000 0.042108 0.124191
0.035789 0.042108 0.124191
0.093311 0.042108 0.124191
0.153787 0.042108 0.124191
0.216125 0.042108 0.124191
0.279842 0.042108 0.124191
0.344661 0.042108 0.124191
0.410401 0.042108 0.124191
0.476933 0.042108 0.124191
0.544162 0.042108 0.124191
0.612013 0.042108 0.124191
0.680428 0.042108 0.124191
0.749356 0.042108 0.124191
0.818758 0.042108 0.124191
0.888599 0.042108 0.124191
0.958849 0.042108 0.124191
0.000000 0.105958 0.124191
0.035789 0.105958 0.124191
0.093311 0.105958 0.124191
0.153787 0.105958 0.124191
0.216125 0.105958 0.124191
0.279842 0.105958 0.124191
0.344661 0.105958 0.124191
0.410401 0.105958 0.124191
0.476933 0.105958 0.124191
0.544162 0.105958 0.124191
0.612013 0.105958 0.124191
0.680428 0.105958 0.124191
0.749356 0.105958 0.124191
0.818758 0.105958 0.124191
0.888599 0.105958 0.124191
0.958849 0.105958 0.124191
0.000000 0.171429 0.124191
0.035789 0.171429 0.124191
0.093311 0.171429 0.124191
0.153787 0.171429 0.124191
0.216125 0.171429 0.124191
0.279842 0.171429 0.124191
0.344661 0.171429 0.124191
0.410401 0.171429 0.124191
0.476933 0.171429 0.124191
0.544162 0.171429 0.124191
0.612013 0.171429 0.124191
0.680428 0.171429 0.124191
0.749356 0.171429 0.124191
0.818758 0.171429 0.124191
0.888599 0.171429 0.124191
0.958849 0.171429 0.124191
0.000000 0.237900 0.124191
0.035789 0.237900 0.124191
0.093311 0.237900 0.124191
0.153787 0.237900 0.124191
0.216125 0.237900 0.124191
0.279842 0.237900 0.124191
0.344661 0.237900 0.124191
0.410401 0.237900 0.124191
0.476933 0.237900 0.124191
0.544162 0.237900 0.124191
0.612013 0.237900 0.124191
0.680428 0.237900 0.124191
0.749356 0.237900 0.124191
0.818758 0.237900 0.124191
0.888599 0.237900 0.124191
0.958849 0.237900 0.124191
0.000000 0.305103 0.124191
0.035789 0.305103 0.124191
0.093311 0.305103 0.124191
0.153787 0.305103 0.124191
0.216125 0.305103 0.124191
0.279842 0.305103 0.124191
0.344661 0.305103 0.124191
0.410401 0.305103 0.124191
0.476933 0.305103 0.124191
0.544162 0.305103 0.124191
0.612013 0.305103 0.124191
0.680428 0.305103 0.124191
0.749356 0.305103 0.124191
0.818758 0.305103 0.124191
0.888599 0.305103 0.124191
0.958849 0.305103 0.124191
0.000000 0.372885 0.124191
0.035789 0.372885 0.124191
0.093311 0.372885 0.124191
0.153787 0.372885 0.124191
0.216125 0.372885 0.124191
0.279842 0.372885 0.124191
0.344661 0.372885 0.124191
0.410401 0.372885 0.124191
0.476933 0.372885 0.124191
0.544162 0.372885 0.124191
0.612013 0.372885 0.124191
0.680428 0.372885 0.124191
0.749356 0.372885 0.124191
0.818758 0.372885 0.124191
0.888599 0.372885 0.124191
0.958849 0.372885 0.124191
0.000000 0.441147 0.124191
0.035789 0.441147 0.124191
0.093311 0.441147 0.124191
0.153787 0.441147 0.124191
0.216125 0.441147 0.124191
0.279842 0.441147 0.124191
0.344661 0.441147 0.124191
0.410401 0.441147 0.124191
0.476933 0.441147 0.124191
0.544162 0.441147 0.124191
0.612013 0.441147 0.124191
0.680428 0.441147 0.124191
0.749356 0.441147 0.124191
0.818758 0.441147 0.124191
0.888599 0.441147 0.124191
0.958849 0.441147 0.124191
0.000000 0.509819 0.124191
0.035789 0.509819 0.124191
0.093311 0.509819 0.124191
0.153787 0.509819 0.124191
0.216125 0.509819 0.124191
0.279842 0.509819 0.124191
0.344661 0.509819 0.124191
0.410401 0.509819 0.124191
0.476933 0.509819 0.124191
0.544162 0.509819 0.124191
0.612013 0.509819 0.124191
0.680428 0.509819 0.124191
0.749356 0.509819 0.124191
0.818758 0.509819 0.124191
0.888599 0.509819 0.124191
0.958849 0.509819 0.124191
0.000000 0.578849 0.124191
0.035789 0.578849 0.124191
0.093311 0.578849 0.124191
0.153787 0.578849 0.124191
0.216125 0.578849 0.124191
0.279842 0.578849 0.124191
0.344661 0.578849 0.124191
0.410401 0.578849 0.124191
0.476933 0.578849 0.124191
0.544162 0.578849 0.124191
0.612013 0.578849 0.124191
0.680428 0.578849 0.124191
0.749356 0.578849 0.124191
0.818758 0.578849 0.124191
0.888599 0.578849 0.124191
0.958849 0.578849 0.124191
0.000000 0.648198 0.124191
0.035789 0.648198 0.124191
0.093311 0.648198 0.124191
0.153787 0.648198 0.124191
0.216125 0.648198 0.124191
0.279842 0.648198 0.124191
0.344661 0.648198 0.124191
0.410401 0.648198 0.124191
0.476933 0.648198 0.124191
0.544162 0.648198 0.124191
0.612013 0.648198 0.124191
0.680428 0.648198 0.124191
0.749356 0.648198 0.124191
0.818758 0.648198 0.124191
0.888599 0.648198 0.124191
0.958849 0.648198 0.124191
0.000000 0.717835 0.124191
0.035789 0.717835 0.124191
0.093311 0.717835 0.124191
0.153787 0.717835 0.124191
0.216125 0.717835 0.124191
0.279842 0.717835 0.124191
0.344661 0.717835 0.124191
0.410401 0.717835 0.124191
0.476933 0.717835 0.124191
0.544162 0.717835 0.124191
0.612013 0.717835 0.124191
0.680428 0.717835 0.124191
0.749356 0.717835 0.124191
0.818758 0.717835 0.124191
0.888599 0.717835 0.124191
0.958849 0.717835 0.124191
0.000000 0.787732 0.124191
0.035789 0.787732 0.124191
0.093311 0.787732 0.124191
0.153787 0.787732 0.124191
0.216125 0.787732 0.124191
0.279842 0.787732 0.124191
0.344661 0.787732 0.124191
0.410401 0.787732 0.124191
0.476933 0.787732 0.124191
0.544162 0.787732 0.124191
0.612013 0.787732 0.124191
0.680428 0.787732 0.124191
0.749356 0.787732 0.124191
0.818758 0.787732 0.124191
0.888599 0.787732 0.124191
0.958849 0.787732 0.124191
0.000000 0.857869 0.124191
0.035789 0.857869 0.124191
0.093311 0.857869 0.124191
0.153787 0.857869 0.124191
0.216125 0.857869 0.124191
0.279842 0.857869 0.124191
0.344661 0.857869 0.124191
0.410401 0.857869 0.124191
0.476933 0.857869 0.124191
0.544162 0.857869 0.124191
0.612013 0.857869 0.124191
0.680428 0.857869 0.124191
0.749356 0.857869 0.124191
0.818758 0.857869 0.124191
0.888599 0.857869 0.124191
0.958849 0.857869 0.124191
0.000000 0.928228 0.124191
0.035789 0.928228 0.124191
0.093311 0.928228 0.124191
0.153787 0.928228 0.124191
0.216125 0.928228 0.124191
0.279842 0.928228 0.124191
0.344661 0.928228 0.124191
0.410401 0.928228 0.124191
0.476933 0.928228 0.124191
0.544162 0.928228 0.124191
0.612013 0.928228 0.124191
0.680428 0.928228 0.124191
0.749356 0.928228 0.124191
0.818758 0.928228 0.124191
0.888599 0.928228 0.124191
0.958849 0.928228 0.124191
0.000000 0.998793 0.124191
0.035789 0.998793 0.124191
0.093311 0.998793 0.124191
0.153787 0.998793 0.124191
0.216125 0.998793 0.124191
0.279842 0.998793 0.124191
0.344661 0.998793 0.124191
0.410401 0.998793 0.124191
0.476933 0.998793 0.124191
0.544162 0.998793 0.124191
0.612013 0.998793 0.124191
0.680428 0.998793 0.124191
0.749356 0.998793 0.124191
0.818758 0.998793 0.124191
0.888599 0.998793 0.124191
0.958849 0.998793 0.124191
0.000000 0.000000 0.192983
0.035789 0.000000 0.192983
0.093311 0.000000 0.192983
0.153787 0.000000 0.192983
0.216125 0.000000 0.192983
0.279842 0.000000 0.192983
0.344661 0.000000 0.192983
0.410401 0.000000 0.192983
0.476933 0.000000 0.192983
0.544162 0.000000 0.192983
0.612013 0.000000 0.192983
0.680428 0.000000 0.192983
0.749356 0.000000 0.192983
0.818758 0.000000 0.192983
0.888599 0.000000 0.192983
0.958849 0.000000 0.192983
0.000000 0.042108 0.192983
0.035789 0.042108 0.192983
0.093311 0.042108 0.192983
0.153787 0.042108 0.192983
0.216125 0.042108 0.192983
0.279842 0.042108 0.192983
0.344661 0.042108 0.192983
0.410401 0.042108 0.192983
0.476933 0.042108 0.192983
0.544162 0.042108 0.192983
0.612013 0.042108 0.192983
0.680428 0.042108 0.192983
0.749356 0.042108 0.192983
0.818758 0.042108 0.192983
0.888599 0.042108 0.192983
0.958849 0.042108 0.192983
0.000000 0.105958 0.192983
0.035789 0.105958 0.192983
0.093311 0.105958 0.192983
0.153787 0.105958 0.192983
0.216125 0.105958 0.192983
0.279842 0.105958 0.192983
0.344661 0.105958 0.192983
0.410401 0.105958 0.192983
0.476933 0.105958 0.192983
0.544162 0.105958 0.192983
0.612013 0.105958 0.192983
0.680428 0.105958 0.192983
0.749356 0.105958 0.192983
0.818758 0.105958 0.192983
0.888599 0.105958 0.192983
0.958849 0.105958 0.192983
0.000000 0.171429 0.192983
0.035789 0.171429 0.192983
0.093311 0.171429 0.192983
0.153787 0.171429 0.192983
0.216125 0.171429 0.192983
0.279842 0.171429 0.192983
0.344661 0.171429 0.192983
0.410401 0.171429 0.192983
0.476933 0.171429 0.192983
0.544162 0.171429 0.192983
0.612013 0.171429 0.192983
0.680428 0.171429 0.192983
0.749356 0.171429 0.192983
0.818758 0.171429 0.192983
0.888599 0.171429 0.192983
0.958849 0.171429 0.192983
0.000000 0.237900 0.192983
0.035789 0.237900 0.192983
0.093311 0.237900 0.192983
0.153787 0.237900 0.192983
0.216125 0.237900 0.192983
0.279842 0.237900 0.192983
0.344661 0.237900 0.192983
0.410401 0.237900 0.192983
0.476933 0.237900 0.192983
0.544162 0.237900 0.192983
0.612013 0.237900 0.192983
0.680428 0.237900 0.192983
0.749356 0.237900 0.192983
0.818758 0.237900 0.192983
0.888599 0.237900 0.192983
0.958849 0.237900 0.192983
0.000000 0.305103 0.192983
0.035789 0.305103 0.192983
0.093311 0.305103 0.192983
0.153787 0.305103 0.192983
0.216125 0.305103 0.192983
0.279842 0.305103 0.192983
0.344661 0.305103 0.192983
0.410401 0.305103 0.192983
0.476933 0.305103 0.192983
0.544162 0.305103 0.192983
0.612013 0.305103 0.192983
0.680428 0.305103 0.192983
0.749356 0.305103 0.192983
0.818758 0.305103 0.192983
0.888599 0.305103 0.192983
0.958849 0.305103 0.192983
0.000000 0.372885 0.192983
0.035789 0.372885 0.192983
0.093311 0.372885 0.192983
0.153787 0.372885 0.192983
0.216125 0.372885 0.192983
0.279842 0.372885 0.192983
0.344661 0.372885 0.192983
0.410401 0.372885 0.192983
0.476933 0.372885 0.192983
0.544162 0.372885 0.192983
0.612013 0.372885 0.192983
0.680428 0.372885 0.192983
0.749356 0.372885 0.192983
0.818758 0.372885 0.192983
0.888599 0.372885 0.192983
0.958849 0.372885 0.192983
0.000000 0.441147 0.192983
0.035789 0.441147 0.192983
0.093311 0.441147 0.192983
0.153787 0.441147 0.192983
0.216125 0.441147 0.192983
0.279842 0.441147 0.192983
0.344661 0.441147 0.192983
0.410401 0.441147 0.192983
