project/assets/noai_beautify/luts/wasteland_16.cube
# Wasteland
LUT_3D_SIZE 16
0.034754 0.010000 0.000000
0.109394 0.010000 0.000000
0.182910 0.010000 0.000000
0.255810 0.010000 0.000000
0.328282 0.010000 0.000000
0.400427 0.010000 0.000000
0.472305 0.010000 0.000000
0.543961 0.010000 0.000000
0.615423 0.010000 0.000000
0.686717 0.010000 0.000000
0.757859 0.010000 0.000000
0.828865 0.010000 0.000000
0.899747 0.010000 0.000000
0.970515 0.010000 0.000000
1.000000 0.010000 0.000000
1.000000 0.010000 0.000000
0.034754 0.076667 0.000000
0.109394 0.076667 0.000000
0.182910 0.076667 0.000000
0.255810 0.076667 0.000000
0.328282 0.076667 0.000000
0.400427 0.076667 0.000000
0.472305 0.076667 0.000000
0.543961 0.076667 0.000000
0.615423 0.076667 0.000000
0.686717 0.076667 0.000000
0.757859 0.076667 0.000000
0.828865 0.076667 0.000000
0.899747 0.076667 0.000000
0.970515 0.076667 0.000000
1.000000 0.076667 0.000000
1.000000 0.076667 0.000000
0.034754 0.143333 0.000000
0.109394 0.143333 0.000000
0.182910 0.143333 0.000000
0.255810 0.143333 0.000000
0.328282 0.143333 0.000000
0.400427 0.143333 0.000000
0.472305 0.143333 0.000000
0.543961 0.143333 0.000000
0.615423 0.143333 0.000000
0.686717 0.143333 0.000000
0.757859 0.143333 0.000000
0.828865 0.143333 0.000000
0.899747 0.143333 0.000000
0.970515 0.143333 0.000000
1.000000 0.143333 0.000000
1.000000 0.143333 0.000000
0.034754 0.210000 0.000000
0.109394 0.210000 0.000000
0.182910 0.210000 0.000000
0.255810 0.210000 0.000000
0.328282 0.210000 0.000000
0.400427 0.210000 0.000000
0.472305 0.210000 0.000000
0.543961 0.210000 0.000000
0.615423 0.210000 0.000000
0.686717 0.210000 0.000000
0.757859 0.210000 0.000000
0.828865 0.210000 0.000000
0.899747 0.210000 0.000000
0.970515 0.210000 0.000000
1.000000 0.210000 0.000000
1.000000 0.210000 0.000000
0.034754 0.276667 0.000000
0.109394 0.276667 0.000000
0.182910 0.276667 0.000000
0.255810 0.276667 0.000000
0.328282 0.276667 0.000000
0.400427 0.276667 0.000000
0.472305 0.276667 0.000000
0.543961 0.276667 0.000000
0.615423 0.276667 0.000000
0.686717 0.276667 0.000000
0.757859 0.276667 0.000000
0.828865 0.276667 0.000000
0.899747 0.276667 0.000000
0.970515 0.276667 0.000000
1.000000 0.276667 0.000000
1.000000 0.276667 0.000000
0.034754 0.343333 0.000000
0.109394 0.343333 0.000000
0.182910 0.343333 0.000000
0.255810 0.343333 0.000000
0.328282 0.343333 0.000000
0.400427 0.343333 0.000000
0.472305 0.343333 0.000000
0.543961 0.343333 0.000000
0.615423 0.343333 0.000000
0.686717 0.343333 0.000000
0.757859 0.343333 0.000000
0.828865 0.343333 0.000000
0.899747 0.343333 0.000000
0.970515 0.343333 0.000000
1.000000 0.343333 0.000000
1.000000 0.343333 0.000000
0.034754 0.410000 0.000000
0.109394 0.410000 0.000000
0.182910 0.410000 0.000000
0.255810 0.410000 0.000000
0.328282 0.410000 0.000000
0.400427 0.410000 0.000000
0.472305 0.410000 0.000000
0.543961 0.410000 0.000000
0.615423 0.410000 0.000000
0.686717 0.410000 0.000000
0.757859 0.410000 0.000000
0.828865 0.410000 0.000000
0.899747 0.410000 0.000000
0.970515 0.410000 0.000000
1.000000 0.410000 0.000000
1.000000 0.410000 0.000000
0.034754 0.476667 0.000000
0.109394 0.476667 0.000000
0.182910 0.476667 0.000000
0.255810 0.476667 0.000000
0.328282 0.476667 0.000000
0.400427 0.476667 0.000000
0.472305 0.476667 0.000000
0.543961 0.476667 0.000000
0.615423 0.476667 0.000000
0.686717 0.476667 0.000000
0.757859 0.476667 0.000000
0.828865 0.476667 0.000000
0.899747 0.476667 0.000000
0.970515 0.476667 0.000000
1.000000 0.476667 0.000000
1.000000 0.476667 0.000000
0.034754 0.543333 0.000000
0.109394 0.543333 0.000000
0.182910 0.543333 0.000000
0.255810 0.543333 0.000000
0.328282 0.543333 0.000000
0.400427 0.543333 0.000000
0.472305 0.543333 0.000000
0.543961 0.543333 0.000000
0.615423 0.543333 0.000000
0.686717 0.543333 0.000000
0.757859 0.543333 0.000000
0.828865 0.543333 0.000000
0.899747 0.543333 0.000000
0.970515 0.543333 0.000000
1.000000 0.543333 0.000000
1.000000 0.543333 0.000000
0.034754 0.610000 0.000000
0.109394 0.610000 0.000000
0.182910 0.610000 0.000000
0.255810 0.610000 0.000000
0.328282 0.610000 0.000000
0.400427 0.610000 0.000000
0.472305 0.610000 0.000000
0.543961 0.610000 0.000000
0.615423 0.610000 0.000000
0.686717 0.610000 0.000000
0.757859 0.610000 0.000000
0.828865 0.610000 0.000000
0.899747 0.610000 0.000000
0.970515 0.610000 0.000000
1.000000 0.610000 0.000000
1.000000 0.610000 0.000000
0.034754 0.676667 0.000000
0.109394 0.676667 0.000000
0.182910 0.676667 0.000000
0.255810 0.676667 0.000000
0.328282 0.676667 0.000000
0.400427 0.676667 0.000000
0.472305 0.676667 0.000000
0.543961 0.676667 0.000000
0.615423 0.676667 0.000000
0.686717 0.676667 0.000000
0.757859 0.676667 0.000000
0.828865 0.676667 0.000000
0.899747 0.676667 0.000000
0.970515 0.676667 0.000000
1.000000 0.676667 0.000000
1.000000 0.676667 0.000000
0.034754 0.743333 0.000000
0.109394 0.743333 0.000000
0.182910 0.743333 0.000000
0.255810 0.743333 0.000000
0.328282 0.743333 0.000000
0.400427 0.743333 0.000000
0.472305 0.743333 0.000000
0.543961 0.743333 0.000000
0.615423 0.743333 0.000000
0.686717 0.743333 0.000000
0.757859 0.743333 0.000000
0.828865 0.743333 0.000000
0.899747 0.743333 0.000000
0.970515 0.743333 0.000000
1.000000 0.743333 0.000000
1.000000 0.743333 0.000000
0.034754 0.810000 0.000000
0.109394 0.810000 0.000000
0.182910 0.810000 0.000000
0.255810 0.810000 0.000000
0.328282 0.810000 0.000000
0.400427 0.810000 0.000000
0.472305 0.810000 0.000000
0.543961 0.810000 0.000000
0.615423 0.810000 0.000000
0.686717 0.810000 0.000000
0.757859 0.810000 0.000000
0.828865 0.810000 0.000000
0.899747 0.810000 0.000000
0.970515 0.810000 0.000000
1.000000 0.810000 0.000000
1.000000 0.810000 0.000000
0.034754 0.876667 0.000000
0.109394 0.876667 0.000000
0.182910 0.876667 0.000000
0.255810 0.876667 0.000000
0.328282 0.876667 0.000000
0.400427 0.876667 0.000000
0.472305 0.876667 0.000000
0.543961 0.876667 0.000000
0.615423 0.876667 0.000000
0.686717 0.876667 0.000000
0.757859 0.876667 0.000000
0.828865 0.876667 0.000000
0.899747 0.876667 0.000000
0.970515 0.876667 0.000000
1.000000 0.876667 0.000000
1.000000 0.876667 0.000000
0.034754 0.943333 0.000000
0.109394 0.943333 0.000000
0.182910 0.943333 0.000000
0.255810 0.943333 0.000000
0.328282 0.943333 0.000000
0.400427 0.943333 0.000000
0.472305 0.943333 0.000000
0.543961 0.943333 0.000000
0.615423 0.943333 0.000000
0.686717 0.943333 0.000000
0.757859 0.943333 0.000000
0.828865 0.943333 0.000000
0.899747 0.943333 0.000000
0.970515 0.943333 0.000000
1.000000 0.943333 0.000000
1.000000 0.943333 0.000000
0.034754 1.000000 0.000000
0.109394 1.000000 0.000000
0.182910 1.000000 0.000000
0.255810 1.000000 0.000000
0.328282 1.000000 0.000000
0.400427 1.000000 0.000000
0.472305 1.000000 0.000000
0.543961 1.000000 0.000000
0.615423 1.000000 0.000000
0.686717 1.000000 0.000000
0.757859 1.000000 0.000000
0.828865 1.000000 0.000000
0.899747 1.000000 0.000000
0.970515 1.000000 0.000000
1.000000 1.000000 0.000000
1.000000 1.000000 0.000000
0.034754 0.010000 0.037154
0.109394 0.010000 0.037154
0.182910 0.010000 0.037154
0.255810 0.010000 0.037154
0.328282 0.010000 0.037154
0.400427 0.010000 0.037154
0.472305 0.010000 0.037154
0.543961 0.010000 0.037154
0.615423 0.010000 0.037154
0.686717 0.010000 0.037154
0.757859 0.010000 0.037154
0.828865 0.010000 0.037154
0.899747 0.010000 0.037154
0.970515 0.010000 0.037154
1.000000 0.010000 0.037154
1.000000 0.010000 0.037154
0.034754 0.076667 0.037154
0.109394 0.076667 0.037154
0.182910 0.076667 0.037154
0.255810 0.076667 0.037154
0.328282 0.076667 0.037154
0.400427 0.076667 0.037154
0.472305 0.076667 0.037154
0.543961 0.076667 0.037154
0.615423 0.076667 0.037154
0.686717 0.076667 0.037154
0.757859 0.076667 0.037154
0.828865 0.076667 0.037154
0.899747 0.076667 0.037154
0.970515 0.076667 0.037154
1.000000 0.076667 0.037154
1.000000 0.076667 0.037154
0.034754 0.143333 0.037154
0.109394 0.143333 0.037154
0.182910 0.143333 0.037154
0.255810 0.143333 0.037154
0.328282 0.143333 0.037154
0.400427 0.143333 0.037154
0.472305 0.143333 0.037154
0.543961 0.143333 0.037154
0.615423 0.143333 0.037154
0.686717 0.143333 0.037154
0.757859 0.143333 0.037154
0.828865 0.143333 0.037154
0.899747 0.143333 0.037154
0.970515 0.143333 0.037154
1.000000 0.143333 0.037154
1.000000 0.143333 0.037154
0.034754 0.210000 0.037154
0.109394 0.210000 0.037154
0.182910 0.210000 0.037154
0.255810 0.210000 0.037154
0.328282 0.210000 0.037154
0.400427 0.210000 0.037154
0.472305 0.210000 0.037154
0.543961 0.210000 0.037154
0.615423 0.210000 0.037154
0.686717 0.210000 0.037154
0.757859 0.210000 0.037154
0.828865 0.210000 0.037154
0.899747 0.210000 0.037154
0.970515 0.210000 0.037154
1.000000 0.210000 0.037154
1.000000 0.210000 0.037154
0.034754 0.276667 0.037154
0.109394 0.276667 0.037154
0.182910 0.276667 0.037154
0.255810 0.276667 0.037154
0.328282 0.276667 0.037154
0.400427 0.276667 0.037154
0.472305 0.276667 0.037154
0.543961 0.276667 0.037154
0.615423 0.276667 0.037154
0.686717 0.276667 0.037154
0.757859 0.276667 0.037154
0.828865 0.276667 0.037154
0.899747 0.276667 0.037154
0.970515 0.276667 0.037154
1.000000 0.276667 0.037154
1.000000 0.276667 0.037154
0.034754 0.343333 0.037154
0.109394 0.343333 0.037154
0.182910 0.343333 0.037154
0.255810 0.343333 0.037154
0.328282 0.343333 0.037154
0.400427 0.343333 0.037154
0.472305 0.343333 0.037154
0.543961 0.343333 0.037154
0.615423 0.343333 0.037154
0.686717 0.343333 0.037154
0.757859 0.343333 0.037154
0.828865 0.343333 0.037154
0.899747 0.343333 0.037154
0.970515 0.343333 0.037154
1.000000 0.343333 0.037154
1.000000 0.343333 0.037154
0.034754 0.410000 0.037154
0.109394 0.410000 0.037154
0.182910 0.410000 0.037154
0.255810 0.410000 0.037154
0.328282 0.410000 0.037154
0.400427 0.410000 0.037154
0.472305 0.410000 0.037154
0.543961 0.410000 0.037154
0.615423 0.410000 0.037154
0.686717 0.410000 0.037154
0.757859 0.410000 0.037154
0.828865 0.410000 0.037154
0.899747 0.410000 0.037154
0.970515 0.410000 0.037154
1.000000 0.410000 0.037154
1.000000 0.410000 0.037154
0.034754 0.476667 0.037154
0.109394 0.476667 0.037154
0.182910 0.476667 0.037154
0.255810 0.476667 0.037154
0.328282 0.476667 0.037154
0.400427 0.476667 0.037154
0.472305 0.476667 0.037154
0.543961 0.476667 0.037154
0.615423 0.476667 0.037154
0.686717 0.476667 0.037154
0.757859 0.476667 0.037154
0.828865 0.476667 0.037154
0.899747 0.476667 0.037154
0.970515 0.476667 0.037154
1.000000 0.476667 0.037154
1.000000 0.476667 0.037154
0.034754 0.543333 0.037154
0.109394 0.543333 0.037154
0.182910 0.543333 0.037154
0.255810 0.543333 0.037154
0.328282 0.543333 0.037154
0.400427 0.543333 0.037154
0.472305 0.543333 0.037154
0.543961 0.543333 0.037154
0.615423 0.543333 0.037154
0.686717 0.543333 0.037154
0.757859 0.543333 0.037154
0.828865 0.543333 0.037154
0.899747 0.543333 0.037154
0.970515 0.543333 0.037154
1.000000 0.543333 0.037154
1.000000 0.543333 0.037154
0.034754 0.610000 0.037154
0.109394 0.610000 0.037154
0.182910 0.610000 0.037154
0.255810 0.610000 0.037154
0.328282 0.610000 0.037154
0.400427 0.610000 0.037154
0.472305 0.610000 0.037154
0.543961 0.610000 0.037154
0.615423 0.610000 0.037154
0.686717 0.610000 0.037154
0.757859 0.610000 0.037154
0.828865 0.610000 0.037154
0.899747 0.610000 0.037154
0.970515 0.610000 0.037154
1.000000 0.610000 0.037154
1.000000 0.610000 0.037154
0.034754 0.676667 0.037154
0.109394 0.676667 0.037154
0.182910 0.676667 0.037154
0.255810 0.676667 0.037154
0.328282 0.676667 0.037154
0.400427 0.676667 0.037154
0.472305 0.676667 0.037154
0.543961 0.676667 0.037154
0.615423 0.676667 0.037154
0.686717 0.676667 0.037154
0.757859 0.676667 0.037154
0.828865 0.676667 0.037154
0.899747 0.676667 0.037154
0.970515 0.676667 0.037154
1.000000 0.676667 0.037154
1.000000 0.676667 0.037154
0.034754 0.743333 0.037154
0.109394 0.743333 0.037154
0.182910 0.743333 0.037154
0.255810 0.743333 0.037154
0.328282 0.743333 0.037154
0.400427 0.743333 0.037154
0.472305 0.743333 0.037154
0.543961 0.743333 0.037154
0.615423 0.743333 0.037154
0.686717 0.743333 0.037154
0.757859 0.743333 0.037154
0.828865 0.743333 0.037154
0.899747 0.743333 0.037154
0.970515 0.743333 0.037154
1.000000 0.743333 0.037154
1.000000 0.743333 0.037154
0.034754 0.810000 0.037154
0.109394 0.810000 0.037154
0.182910 0.810000 0.037154
0.255810 0.810000 0.037154
0.328282 0.810000 0.037154
0.400427 0.810000 0.037154
0.472305 0.810000 0.037154
0.543961 0.810000 0.037154
0.615423 0.810000 0.037154
0.686717 0.810000 0.037154
0.757859 0.810000 0.037154
0.828865 0.810000 0.037154
0.899747 0.810000 0.037154
0.970515 0.810000 0.037154
1.000000 0.810000 0.037154
1.000000 0.810000 0.037154
0.034754 0.876667 0.037154
0.109394 0.876667 0.037154
0.182910 0.876667 0.037154
0.255810 0.876667 0.037154
0.328282 0.876667 0.037154
0.400427 0.876667 0.037154
0.472305 0.876667 0.037154
0.543961 0.876667 0.037154
0.615423 0.876667 0.037154
0.686717 0.876667 0.037154
0.757859 0.876667 0.037154
0.828865 0.876667 0.037154
0.899747 0.876667 0.037154
0.970515 0.876667 0.037154
1.000000 0.876667 0.037154
1.000000 0.876667 0.037154
0.034754 0.943333 0.037154
0.109394 0.943333 0.037154
0.182910 0.943333 0.037154
0.255810 0.943333 0.037154
0.328282 0.943333 0.037154
0.400427 0.943333 0.037154
0.472305 0.943333 0.037154
0.543961 0.943333 0.037154
0.615423 0.943333 0.037154
0.686717 0.943333 0.037154
0.757859 0.943333 0.037154
0.828865 0.943333 0.037154
0.899747 0.943333 0.037154
0.970515 0.943333 0.037154
1.000000 0.943333 0.037154
1.000000 0.943333 0.037154
0.034754 1.000000 0.037154
0.109394 1.000000 0.037154
0.182910 1.000000 0.037154
0.255810 1.000000 0.037154
0.328282 1.000000 0.037154
0.400427 1.000000 0.037154
0.472305 1.000000 0.037154
0.543961 1.000000 0.037154
0.615423 1.000000 0.037154
0.686717 1.000000 0.037154
0.757859 1.000000 0.037154
0.828865 1.000000 0.037154
0.899747 1.000000 0.037154
0.970515 1.000000 0.037154
1.000000 1.000000 0.037154
1.000000 1.000000 0.037154
0.034754 0.010000 0.093492
0.109394 0.010000 0.093492
0.182910 0.010000 0.093492
0.255810 0.010000 0.093492
0.328282 0.010000 0.093492
0.400427 0.010000 0.093492
0.472305 0.010000 0.093492
0.543961 0.010000 0.093492
0.615423 0.010000 0.093492
0.686717 0.010000 0.093492
0.757859 0.010000 0.093492
0.828865 0.010000 0.093492
0.899747 0.010000 0.093492
0.970515 0.010000 0.093492
1.000000 0.010000 0.093492
1.000000 0.010000 0.093492
0.034754 0.076667 0.093492
0.109394 0.076667 0.093492
0.182910 0.076667 0.093492
0.255810 0.076667 0.093492
0.328282 0.076667 0.093492
0.400427 0.076667 0.093492
0.472305 0.076667 0.093492
0.543961 0.076667 0.093492
0.615423 0.076667 0.093492
0.686717 0.076667 0.093492
0.757859 0.076667 0.093492
0.828865 0.076667 0.093492
0.899747 0.076667 0.093492
0.970515 0.076667 0.093492
1.000000 0.076667 0.093492
1.000000 0.076667 0.093492
0.034754 0.143333 0.093492
0.109394 0.143333 0.093492
0.182910 0.143333 0.093492
0.255810 0.143333 0.093492
0.328282 0.143333 0.093492
0.400427 0.143333 0.093492
0.472305 0.143333 0.093492
0.543961 0.143333 0.093492
0.615423 0.143333 0.093492
0.686717 0.143333 0.093492
0.757859 0.143333 0.093492
0.828865 0.143333 0.093492
0.899747 0.143333 0.093492
0.970515 0.143333 0.093492
1.000000 0.143333 0.093492
1.000000 0.143333 0.093492
0.034754 0.210000 0.093492
0.109394 0.210000 0.093492
0.182910 0.210000 0.093492
0.255810 0.210000 0.093492
0.328282 0.210000 0.093492
0.400427 0.210000 0.093492
0.472305 0.210000 0.093492
0.543961 0.210000 0.093492
0.615423 0.210000 0.093492
0.686717 0.210000 0.093492
0.757859 0.210000 0.093492
0.828865 0.210000 0.093492
0.899747 0.210000 0.093492
0.970515 0.210000 0.093492
1.000000 0.210000 0.093492
1.000000 0.210000 0.093492
0.034754 0.276667 0.093492
0.109394 0.276667 0.093492
0.182910 0.276667 0.093492
0.255810 0.276667 0.093492
0.328282 0.276667 0.093492
0.400427 0.276667 0.093492
0.472305 0.276667 0.093492
0.543961 0.276667 0.093492
0.615423 0.276667 0.093492
0.686717 0.276667 0.093492
0.757859 0.276667 0.093492
0.828865 0.276667 0.093492
0.899747 0.276667 0.093492
0.970515 0.276667 0.093492
1.000000 0.276667 0.093492
1.000000 0.276667 0.093492
0.034754 0.343333 0.093492
0.109394 0.343333 0.093492
0.182910 0.343333 0.093492
0.255810 0.343333 0.093492
0.328282 0.343333 0.093492
0.400427 0.343333 0.093492
0.472305 0.343333 0.093492
0.543961 0.343333 0.093492
0.615423 0.343333 0.093492
0.686717 0.343333 0.093492
0.757859 0.343333 0.093492
0.828865 0.343333 0.093492
0.899747 0.343333 0.093492
0.970515 0.343333 0.093492
1.000000 0.343333 0.093492
1.000000 0.343333 0.093492
0.034754 0.410000 0.093492
0.109394 0.410000 0.093492
0.182910 0.410000 0.093492
0.255810 0.410000 0.093492
0.328282 0.410000 0.093492
0.400427 0.410000 0.093492
0.472305 0.410000 0.093492
0.543961 0.410000 0.093492
0.615423 0.410000 0.093492
0.686717 0.410000 0.093492
0.757859 0.410000 0.093492
0.828865 0.410000 0.093492
0.899747 0.410000 0.093492
0.970515 0.410000 0.093492
1.000000 0.410000 0.093492
1.000000 0.410000 0.093492
0.034754 0.476667 0.093492
0.109394 0.476667 0.093492
0.182910 0.476667 0.093492
0.255810 0.476667 0.093492
0.328282 0.476667 0.093492
0.400427 0.476667 0.093492
0.472305 0.476667 0.093492
0.543961 0.476667 0.093492
0.615423 0.476667 0.093492
0.686717 0.476667 0.093492
0.757859 0.476667 0.093492
0.828865 0.476667 0.093492
0.899747 0.476667 0.093492
0.970515 0.476667 0.093492
1.000000 0.476667 0.093492
1.000000 0.476667 0.093492
0.034754 0.543333 0.093492
0.109394 0.543333 0.093492
0.182910 0.543333 0.093492
0.255810 0.543333 0.093492
0.328282 0.543333 0.093492
0.400427 0.543333 0.093492
0.472305 0.543333 0.093492
0.543961 0.543333 0.093492
0.615423 0.543333 0.093492
0.686717 0.543333 0.093492
0.757859 0.543333 0.093492
0.828865 0.543333 0.093492
0.899747 0.543333 0.093492
0.970515 0.543333 0.093492
1.000000 0.543333 0.093492
1.000000 0.543333 0.093492
0.034754 0.610000 0.093492
0.109394 0.610000 0.093492
0.182910 0.610000 0.093492
0.255810 0.610000 0.093492
0.328282 0.610000 0.093492
0.400427 0.610000 0.093492
0.472305 0.610000 0.093492
0.543961 0.610000 0.093492
0.615423 0.610000 0.093492
0.686717 0.610000 0.093492
0.757859 0.610000 0.093492
0.828865 0.610000 0.093492
0.899747 0.610000 0.093492
0.970515 0.610000 0.093492
1.000000 0.610000 0.093492
1.000000 0.610000 0.093492
0.034754 0.676667 0.093492
0.109394 0.676667 0.093492
0.182910 0.676667 0.093492
0.255810 0.676667 0.093492
0.328282 0.676667 0.093492
0.400427 0.676667 0.093492
0.472305 0.676667 0.093492
0.543961 0.676667 0.093492
0.615423 0.676667 0.093492
0.686717 0.676667 0.093492
0.757859 0.676667 0.093492
0.828865 0.676667 0.093492
0.899747 0.676667 0.093492
0.970515 0.676667 0.093492
1.000000 0.676667 0.093492
1.000000 0.676667 0.093492
0.034754 0.743333 0.093492
0.109394 0.743333 0.093492
0.182910 0.743333 0.093492
0.255810 0.743333 0.093492
0.328282 0.743333 0.093492
0.400427 0.743333 0.093492
0.472305 0.743333 0.093492
0.543961 0.743333 0.093492
0.615423 0.743333 0.093492
0.686717 0.743333 0.093492
0.757859 0.743333 0.093492
0.828865 0.743333 0.093492
0.899747 0.743333 0.093492
0.970515 0.743333 0.093492
1.000000 0.743333 0.093492
1.000000 0.743333 0.093492
0.034754 0.810000 0.093492
0.109394 0.810000 0.093492
0.182910 0.810000 0.093492
0.255810 0.810000 0.093492
0.328282 0.810000 0.093492
0.400427 0.810000 0.093492
0.472305 0.810000 0.093492
0.543961 0.810000 0.093492
0.615423 0.810000 0.093492
0.686717 0.810000 0.093492
0.757859 0.810000 0.093492
0.828865 0.810000 0.093492
0.899747 0.810000 0.093492
0.970515 0.810000 0.093492
1.000000 0.810000 0.093492
1.000000 0.810000 0.093492
0.034754 0.876667 0.093492
0.109394 0.876667 0.093492
0.182910 0.876667 0.093492
0.255810 0.876667 0.093492
0.328282 0.876667 0.093492
0.400427 0.876667 0.093492
0.472305 0.876667 0.093492
0.543961 0.876667 0.093492
0.615423 0.876667 0.093492
0.686717 0.876667 0.093492
0.757859 0.876667 0.093492
0.828865 0.876667 0.093492
0.899747 0.876667 0.093492
0.970515 0.876667 0.093492
1.000000 0.876667 0.093492
1.000000 0.876667 0.093492
0.034754 0.943333 0.093492
0.109394 0.943333 0.093492
0.182910 0.943333 0.093492
0.255810 0.943333 0.093492
0.328282 0.943333 0.093492
0.400427 0.943333 0.093492
0.472305 0.943333 0.093492
0.543961 0.943333 0.093492
0.615423 0.943333 0.093492
0.686717 0.943333 0.093492
0.757859 0.943333 0.093492
0.828865 0.943333 0.093492
0.899747 0.943333 0.093492
0.970515 0.943333 0.093492
1.000000 0.943333 0.093492
1.000000 0.943333 0.093492
0.034754 1.000000 0.093492
0.109394 1.000000 0.093492
0.182910 1.000000 0.093492
0.255810 1.000000 0.093492
0.328282 1.000000 0.093492
0.400427 1.000000 0.093492
0.472305 1.000000 0.093492
0.543961 1.000000 0.093492
0.615423 1.000000 0.093492
0.686717 1.000000 0.093492
0.757859 1.000000 0.093492
0.828865 1.000000 0.093492
0.899747 1.000000 0.093492
0.970515 1.000000 0.093492
1.000000 1.000000 0.093492
1.000000 1.000000 0.093492
0.034754 0.010000 0.151261
0.109394 0.010000 0.151261
0.182910 0.010000 0.151261
0.255810 0.010000 0.151261
0.328282 0.010000 0.151261
0.400427 0.010000 0.151261
0.472305 0.010000 0.151261
0.543961 0.010000 0.151261
0.615423 0.010000 0.151261
0.686717 0.010000 0.151261
0.757859 0.010000 0.151261
0.828865 0.010000 0.151261
0.899747 0.010000 0.151261
0.970515 0.010000 0.151261
1.000000 0.010000 0.151261
1.000000 0.010000 0.151261
0.034754 0.076667 0.151261
0.109394 0.076667 0.151261
0.182910 0.076667 0.151261
0.255810 0.076667 0.151261
0.328282 0.076667 0.151261
0.400427 0.076667 0.151261
0.472305 0.076667 0.151261
0.543961 0.076667 0.151261
0.615423 0.076667 0.151261
0.686717 0.076667 0.151261
0.757859 0.076667 0.151261
0.828865 0.076667 0.151261
0.899747 0.076667 0.151261
0.970515 0.076667 0.151261
1.000000 0.076667 0.151261
1.000000 0.076667 0.151261
0.034754 0.143333 0.151261
0.109394 0.143333 0.151261
0.182910 0.143333 0.151261
0.255810 0.143333 0.151261
0.328282 0.143333 0.151261
0.400427 0.143333 0.151261
0.472305 0.143333 0.151261
0.543961 0.143333 0.151261
0.615423 0.143333 0.151261
0.686717 0.143333 0.151261
0.757859 0.143333 0.151261
0.828865 0.143333 0.151261
0.899747 0.143333 0.151261
0.970515 0.143333 0.151261
1.000000 0.143333 0.151261
1.000000 0.143333 0.151261
0.034754 0.210000 0.151261
0.109394 0.210000 0.151261
0.182910 0.210000 0.151261
0.255810 0.210000 0.151261
0.328282 0.210000 0.151261
0.400427 0.210000 0.151261
0.472305 0.210000 0.151261
0.543961 0.210000 0.151261
0.615423 0.210000 0.151261
0.686717 0.210000 0.151261
0.757859 0.210000 0.151261
0.828865 0.210000 0.151261
0.899747 0.210000 0.151261
0.970515 0.210000 0.151261
1.000000 0.210000 0.151261
1.000000 0.210000 0.151261
0.034754 0.276667 0.151261
0.109394 0.276667 0.151261
0.182910 0.276667 0.151261
0.255810 0.276667 0.151261
0.328282 0.276667 0.151261
0.400427 0.276667 0.151261
0.472305 0.276667 0.151261
0.543961 0.276667 0.151261
0.615423 0.276667 0.151261
0.686717 0.276667 0.151261
0.757859 0.276667 0.151261
0.828865 0.276667 0.151261
0.899747 0.276667 0.151261
0.970515 0.276667 0.151261
1.000000 0.276667 0.151261
1.000000 0.276667 0.151261
0.034754 0.343333 0.151261
0.109394 0.343333 0.151261
0.182910 0.343333 0.151261
0.255810 0.343333 0.151261
0.328282 0.343333 0.151261
0.400427 0.343333 0.151261
0.472305 0.343333 0.151261
0.543961 0.343333 0.151261
0.615423 0.343333 0.151261
0.686717 0.343333 0.151261
0.757859 0.343333 0.151261
0.828865 0.343333 0.151261
0.899747 0.343333 0.151261
0.970515 0.343333 0.151261
1.000000 0.343333 0.151261
1.000000 0.343333 0.151261
0.034754 0.410000 0.151261
0.109394 0.410000 0.151261
0.182910 0.410000 0.151261
0.255810 0.410000 0.151261
0.328282 0.410000 0.151261
0.400427 0.410000 0.151261
0.472305 0.410000 0.151261
0.543961 0.410000 0.151261
0.615423 0.410000 0.151261
0.686717 0.410000 0.151261
0.757859 0.410000 0.151261
0.828865 0.410000 0.151261
0.899747 0.410000 0.151261
0.970515 0.410000 0.151261
1.000000 0.410000 0.151261
1.000000 0.410000 0.151261
0.034754 0.476667 0.151261
0.109394 0.476667 0.151261
0.182910 0.476667 0.151261
0.255810 0.476667 0.151261
0.328282 0.476667 0.151261
0.400427 0.476667 0.151261
0.472305 0.476667 0.151261
