project/assets/noai_beautify/luts/wasteland_16.cube
# Wasteland
LUT_3D_SIZE 6
0.034754 0.010000 0.000000
0.255810 0.010000 0.000000
0.472305 0.010000 0.000000
0.686717 0.010000 0.000000
0.899747 0.010000 0.000000
1.000000 0.010000 0.000000
0.034754 0.210000 0.000000
0.255810 0.210000 0.000000
0.472305 0.210000 0.000000
0.686717 0.210000 0.000000
0.899747 0.210000 0.000000
1.000000 0.210000 0.000000
0.034754 0.410000 0.000000
0.255810 0.410000 0.000000
0.472305 0.410000 0.000000
0.686717 0.410000 0.000000
0.899747 0.410000 0.000000
1.000000 0.410000 0.000000
0.034754 0.610000 0.000000
0.255810 0.610000 0.000000
0.472305 0.610000 0.000000
0.686717 0.610000 0.000000
0.899747 0.610000 0.000000
1.000000 0.610000 0.000000
0.034754 0.810000 0.000000
0.255810 0.810000 0.000000
0.472305 0.810000 0.000000
0.686717 0.810000 0.000000
0.899747 0.810000 0.000000
1.000000 0.810000 0.000000
0.034754 1.000000 0.000000
0.255810 1.000000 0.000000
0.472305 1.000000 0.000000
0.686717 1.000000 0.000000
0.899747 1.000000 0.000000
1.000000 1.000000 0.000000
0.034754 0.010000 0.151261
0.255810 0.010000 0.151261
0.472305 0.010000 0.151261
0.686717 0.010000 0.151261
0.899747 0.010000 0.151261
1.000000 0.010000 0.151261
0.034754 0.210000 0.151261
0.255810 0.210000 0.151261
0.472305 0.210000 0.151261
0.686717 0.210000 0.151261
0.899747 0.210000 0.151261
1.000000 0.210000 0.151261
0.034754 0.410000 0.151261
0.255810 0.410000 0.151261
0.472305 0.410000 0.151261
0.686717 0.410000 0.151261
0.899747 0.410000 0.151261
1.000000 0.410000 0.151261
0.034754 0.610000 0.151261
0.255810 0.610000 0.151261
0.472305 0.610000 0.151261
0.686717 0.610000 0.151261
0.899747 0.610000 0.151261
1.000000 0.610000 0.151261
0.034754 0.810000 0.151261
0.255810 0.810000 0.151261
0.472305 0.810000 0.151261
0.686717 0.810000 0.151261
0.899747 0.810000 0.151261
1.000000 0.810000 0.151261
0.034754 1.000000 0.151261
0.255810 1.000000 0.151261
0.472305 1.000000 0.151261
0.686717 1.000000 0.151261
0.899747 1.000000 0.151261
1.000000 1.000000 0.151261
0.034754 0.010000 0.329016
0.255810 0.010000 0.329016
0.472305 0.010000 0.329016
0.686717 0.010000 0.329016
0.899747 0.010000 0.329016
1.000000 0.010000 0.329016
0.034754 0.210000 0.329016
0.255810 0.210000 0.329016
0.472305 0.210000 0.329016
0.686717 0.210000 0.329016
0.899747 0.210000 0.329016
1.000000 0.210000 0.329016
0.034754 0.410000 0.329016
0.255810 0.410000 0.329016
0.472305 0.410000 0.329016
0.686717 0.410000 0.329016
0.899747 0.410000 0.329016
1.000000 0.410000 0.329016
0.034754 0.610000 0.329016
0.255810 0.610000 0.329016
0.472305 0.610000 0.329016
0.686717 0.610000 0.329016
0.899747 0.610000 0.329016
1.000000 0.610000 0.329016
0.034754 0.810000 0.329016
0.255810 0.810000 0.329016
0.472305 0.810000 0.329016
0.686717 0.810000 0.329016
0.899747 0.810000 0.329016
1.000000 0.810000 0.329016
0.034754 1.000000 0.329016
0.255810 1.000000 0.329016
0.472305 1.000000 0.329016
0.686717 1.000000 0.329016
0.899747 1.000000 0.329016
1.000000 1.000000 0.329016
0.034754 0.010000 0.510749
0.255810 0.010000 0.510749
0.472305 0.010000 0.510749
0.686717 0.010000 0.510749
0.899747 0.010000 0.510749
1.000000 0.010000 0.510749
0.034754 0.210000 0.510749
0.255810 0.210000 0.510749
0.472305 0.210000 0.510749
0.686717 0.210000 0.510749
0.899747 0.210000 0.510749
1.000000 0.210000 0.510749
0.034754 0.410000 0.510749
0.255810 0.410000 0.510749
0.472305 0.410000 0.510749
0.686717 0.410000 0.510749
0.899747 0.410000 0.510749
1.000000 0.410000 0.510749
0.034754 0.610000 0.510749
0.255810 0.610000 0.510749
0.472305 0.610000 0.510749
0.686717 0.610000 0.510749
0.899747 0.610000 0.510749
1.000000 0.610000 0.510749
0.034754 0.810000 0.510749
0.255810 0.810000 0.510749
0.472305 0.810000 0.510749
0.686717 0.810000 0.510749
0.899747 0.810000 0.510749
1.000000 0.810000 0.510749
0.034754 1.000000 0.510749
0.255810 1.000000 0.510749
0.472305 1.000000 0.510749
0.686717 1.000000 0.510749
0.899747 1.000000 0.510749
1.000000 1.000000 0.510749
0.034754 0.010000 0.695058
0.255810 0.010000 0.695058
0.472305 0.010000 0.695058
0.686717 0.010000 0.695058
0.899747 0.010000 0.695058
1.000000 0.010000 0.695058
0.034754 0.210000 0.695058
0.255810 0.210000 0.695058
0.472305 0.210000 0.695058
0.686717 0.210000 0.695058
0.899747 0.210000 0.695058
1.000000 0.210000 0.695058
0.034754 0.410000 0.695058
0.255810 0.410000 0.695058
0.472305 0.410000 0.695058
0.686717 0.410000 0.695058
0.899747 0.410000 0.695058
1.000000 0.410000 0.695058
0.034754 0.610000 0.695058
0.255810 0.610000 0.695058
0.472305 0.610000 0.695058
0.686717 0.610000 0.695058
0.899747 0.610000 0.695058
1.000000 0.610000 0.695058
0.034754 0.810000 0.695058
0.255810 0.810000 0.695058
0.472305 0.810000 0.695058
0.686717 0.810000 0.695058
0.899747 0.810000 0.695058
1.000000 0.810000 0.695058
0.034754 1.000000 0.695058
0.255810 1.000000 0.695058
0.472305 1.000000 0.695058
0.686717 1.000000 0.695058
0.899747 1.000000 0.695058
1.000000 1.000000 0.695058
0.034754 0.010000 0.881288
0.255810 0.010000 0.881288
0.472305 0.010000 0.881288
0.686717 0.010000 0.881288
0.899747 0.010000 0.881288
1.000000 0.010000 0.881288
0.034754 0.210000 0.881288
0.255810 0.210000 0.881288
0.472305 0.210000 0.881288
0.686717 0.210000 0.881288
0.899747 0.210000 0.881288
1.000000 0.210000 0.881288
0.034754 0.410000 0.881288
0.255810 0.410000 0.881288
0.472305 0.410000 0.881288
0.686717 0.410000 0.881288
0.899747 0.410000 0.881288
1.000000 0.410000 0.881288
0.034754 0.610000 0.881288
0.255810 0.610000 0.881288
0.472305 0.610000 0.881288
0.686717 0.610000 0.881288
0.899747 0.610000 0.881288
1.000000 0.610000 0.881288
0.034754 0.810000 0.881288
0.255810 0.810000 0.881288
0.472305 0.810000 0.881288
0.686717 0.810000 0.881288
0.899747 0.810000 0.881288
1.000000 0.810000 0.881288
0.034754 1.000000 0.881288
0.255810 1.000000 0.881288
0.472305 1.000000 0.881288
0.686717 1.000000 0.881288
0.899747 1.000000 0.881288
1.000000 1.000000 0.881288
